public/lut/anime-soft.cube
TITLE "anime-soft"
LUT_3D_SIZE 6
0.161497 0.143497 0.152497
0.294619 0.146569 0.155569
0.427742 0.149642 0.158642
0.560864 0.152714 0.161714
0.693986 0.155786 0.164786
0.827108 0.158858 0.167858
0.171832 0.283882 0.162832
0.304954 0.286954 0.165904
0.438076 0.290026 0.168976
0.571198 0.293098 0.172048
0.704320 0.296170 0.175120
0.837442 0.299242 0.178192
0.182167 0.424267 0.173167
0.315289 0.427339 0.176239
0.448411 0.430411 0.179311
0.581533 0.433483 0.182383
0.714655 0.436555 0.185455
0.847777 0.439627 0.188527
0.192501 0.564651 0.183501
0.325623 0.567723 0.186573
0.458745 0.570795 0.189645
0.591868 0.573868 0.192718
0.724990 0.576940 0.195790
0.858112 0.580012 0.198862
0.202836 0.705036 0.193836
0.335958 0.708108 0.196908
0.469080 0.711180 0.199980
0.602202 0.714252 0.203052
0.735324 0.717324 0.206124
0.868446 0.720396 0.209196
0.213171 0.845421 0.204171
0.346293 0.848493 0.207243
0.479415 0.851565 0.210315
0.612537 0.854637 0.213387
0.745659 0.857709 0.216459
0.878781 0.860781 0.219531
0.162541 0.144541 0.283591
0.295663 0.147613 0.286663
0.428785 0.150685 0.289735
0.561907 0.153757 0.292807
0.695029 0.156829 0.295879
0.828151 0.159901 0.298951
0.172875 0.284925 0.293925
0.305997 0.287997 0.296997
0.439119 0.291069 0.300069
0.572242 0.294142 0.303142
0.705364 0.297214 0.306214
0.838486 0.300286 0.309286
0.183210 0.425310 0.304260
0.316332 0.428382 0.307332
0.449454 0.431454 0.310404
0.582576 0.434526 0.313476
0.715698 0.437598 0.316548
0.848820 0.440670 0.319620
0.193545 0.565695 0.314595
0.326667 0.568767 0.317667
0.459789 0.571839 0.320739
0.592911 0.574911 0.323811
0.726033 0.577983 0.326883
0.859155 0.581055 0.329955
0.203879 0.706079 0.324929
0.337001 0.709151 0.328001
0.470123 0.712223 0.331073
0.603245 0.715295 0.334145
0.736368 0.718368 0.337218
0.869490 0.721440 0.340290
0.214214 0.846464 0.335264
0.347336 0.849536 0.338336
0.480458 0.852608 0.341408
0.613580 0.855680 0.344480
0.746702 0.858752 0.347552
0.879824 0.861824 0.350624
0.163584 0.145584 0.414684
0.296706 0.148656 0.417756
0.429828 0.151728 0.420828
0.562950 0.154800 0.423900
0.696072 0.157872 0.426972
0.829194 0.160944 0.430044
0.173919 0.285969 0.425019
0.307041 0.289041 0.428091
0.440163 0.292113 0.431163
0.573285 0.295185 0.434235
0.706407 0.298257 0.437307
0.839529 0.301329 0.440379
0.184253 0.426353 0.435353
0.317375 0.429425 0.438425
0.450497 0.432497 0.441497
0.583619 0.435569 0.444569
0.716742 0.438642 0.447642
0.849864 0.441714 0.450714
0.194588 0.566738 0.445688
0.327710 0.569810 0.448760
0.460832 0.572882 0.451832
0.593954 0.575954 0.454904
0.727076 0.579026 0.457976
0.860198 0.582098 0.461048
0.204923 0.707123 0.456023
0.338045 0.710195 0.459095
0.471167 0.713267 0.462167
0.604289 0.716339 0.465239
0.737411 0.719411 0.468311
0.870533 0.722483 0.471383
0.215257 0.847507 0.466357
0.348379 0.850579 0.469429
0.481501 0.853651 0.472501
0.614623 0.856723 0.475573
0.747745 0.859795 0.478645
0.880868 0.862868 0.481718
0.164627 0.146627 0.545777
0.297749 0.149699 0.548849
0.430871 0.152771 0.551921
0.563993 0.155843 0.554993
0.697116 0.158916 0.558066
0.830238 0.161988 0.561138
0.174962 0.287012 0.556112
0.308084 0.290084 0.559184
0.441206 0.293156 0.562256
0.574328 0.296228 0.565328
0.707450 0.299300 0.568400
0.840572 0.302372 0.571472
0.185297 0.427397 0.566447
0.318419 0.430469 0.569519
0.451541 0.433541 0.572591
0.584663 0.436613 0.575663
0.717785 0.439685 0.578735
0.850907 0.442757 0.581807
0.195631 0.567781 0.576781
0.328753 0.570853 0.579853
0.461875 0.573925 0.582925
0.594997 0.576997 0.585997
0.728119 0.580069 0.589069
0.861242 0.583142 0.592142
0.205966 0.708166 0.587116
0.339088 0.711238 0.590188
0.472210 0.714310 0.593260
0.605332 0.717382 0.596332
0.738454 0.720454 0.599404
0.871576 0.723526 0.602476
0.216300 0.848550 0.597450
0.349423 0.851623 0.600523
0.482545 0.854695 0.603595
0.615667 0.857767 0.606667
0.748789 0.860839 0.609739
0.881911 0.863911 0.612811
0.165671 0.147671 0.676871
0.298793 0.150743 0.679943
0.431915 0.153815 0.683015
0.565037 0.156887 0.686087
0.698159 0.159959 0.689159
0.831281 0.163031 0.692231
0.176005 0.288055 0.687205
0.309127 0.291127 0.690277
0.442249 0.294199 0.693349
0.575371 0.297271 0.696421
0.708493 0.300343 0.699493
0.841616 0.303416 0.702566
0.186340 0.428440 0.697540
0.319462 0.431512 0.700612
0.452584 0.434584 0.703684
0.585706 0.437656 0.706756
0.718828 0.440728 0.709828
0.851950 0.443800 0.712900
0.196674 0.568824 0.707874
0.329797 0.571897 0.710947
0.462919 0.574969 0.714019
0.596041 0.578041 0.717091
0.729163 0.581113 0.720163
0.862285 0.584185 0.723235
0.207009 0.709209 0.718209
0.340131 0.712281 0.721281
0.473253 0.715353 0.724353
0.606375 0.718425 0.727425
0.739497 0.721497 0.730497
0.872619 0.724569 0.733569
0.217344 0.849594 0.728544
0.350466 0.852666 0.731616
0.483588 0.855738 0.734688
0.616710 0.858810 0.737760
0.749832 0.861882 0.740832
0.882954 0.864954 0.743904
0.166714 0.148714 0.807964
0.299836 0.151786 0.811036
0.432958 0.154858 0.814108
0.566080 0.157930 0.817180
0.699202 0.161002 0.820252
0.832324 0.164074 0.823324
0.177048 0.289098 0.818298
0.310171 0.292171 0.821371
0.443293 0.295243 0.824443
0.576415 0.298315 0.827515
0.709537 0.301387 0.830587
0.842659 0.304459 0.833659
0.187383 0.429483 0.828633
0.320505 0.432555 0.831705
0.453627 0.435627 0.834777
0.586749 0.438699 0.837849
0.719871 0.441771 0.840921
0.852993 0.444843 0.843993
0.197718 0.569868 0.838968
0.330840 0.572940 0.842040
0.463962 0.576012 0.845112
0.597084 0.579084 0.848184
0.730206 0.582156 0.851256
0.863328 0.585228 0.854328
0.208052 0.710252 0.849302
0.341174 0.713324 0.852374
0.474297 0.716397 0.855447
0.607419 0.719469 0.858519
0.740541 0.722541 0.861591
0.873663 0.725613 0.864663
0.218387 0.850637 0.859637
0.351509 0.853709 0.862709
0.484631 0.856781 0.865781
0.617753 0.859853 0.868853
0.750875 0.862925 0.871925
0.883997 0.865997 0.874997
