public/lut/anime-soft.cube
TITLE "anime-soft"
LUT_3D_SIZE 16
0.161497 0.143497 0.152497
0.205871 0.144521 0.153521
0.250245 0.145545 0.154545
0.294619 0.146569 0.155569
0.338993 0.147593 0.156593
0.383368 0.148618 0.157618
0.427742 0.149642 0.158642
0.472116 0.150666 0.159666
0.516490 0.151690 0.160690
0.560864 0.152714 0.161714
0.605238 0.153738 0.162738
0.649612 0.154762 0.163762
0.693986 0.155786 0.164786
0.738360 0.156810 0.165810
0.782734 0.157834 0.166834
0.827108 0.158858 0.167858
0.164942 0.190292 0.155942
0.209316 0.191316 0.156966
0.253690 0.192340 0.157990
0.298064 0.193364 0.159014
0.342438 0.194388 0.160038
0.386812 0.195412 0.161062
0.431186 0.196436 0.162086
0.475560 0.197460 0.163110
0.519934 0.198484 0.164134
0.564308 0.199508 0.165158
0.608683 0.200533 0.166183
0.653057 0.201557 0.167207
0.697431 0.202581 0.168231
0.741805 0.203605 0.169255
0.786179 0.204629 0.170279
0.830553 0.205653 0.171303
0.168387 0.237087 0.159387
0.212761 0.238111 0.160411
0.257135 0.239135 0.161435
0.301509 0.240159 0.162459
0.345883 0.241183 0.163483
0.390257 0.242207 0.164507
0.434631 0.243231 0.165531
0.479005 0.244255 0.166555
0.523379 0.245279 0.167579
0.567753 0.246303 0.168603
0.612127 0.247327 0.169627
0.656501 0.248351 0.170651
0.700875 0.249375 0.171675
0.745249 0.250399 0.172699
0.789623 0.251423 0.173723
0.833998 0.252448 0.174748
0.171832 0.283882 0.162832
0.216206 0.284906 0.163856
0.260580 0.285930 0.164880
0.304954 0.286954 0.165904
0.349328 0.287978 0.166928
0.393702 0.289002 0.167952
0.438076 0.290026 0.168976
0.482450 0.291050 0.170000
0.526824 0.292074 0.171024
0.571198 0.293098 0.172048
0.615572 0.294122 0.173072
0.659946 0.295146 0.174096
0.704320 0.296170 0.175120
0.748694 0.297194 0.176144
0.793068 0.298218 0.177168
0.837442 0.299242 0.178192
0.175277 0.330677 0.166277
0.219651 0.331701 0.167301
0.264025 0.332725 0.168325
0.308399 0.333749 0.169349
0.352773 0.334773 0.170373
0.397147 0.335797 0.171397
0.441521 0.336821 0.172421
0.485895 0.337845 0.173445
0.530269 0.338869 0.174469
0.574643 0.339893 0.175493
0.619017 0.340917 0.176517
0.663391 0.341941 0.177541
0.707765 0.342965 0.178565
0.752139 0.343989 0.179589
0.796513 0.345013 0.180613
0.840887 0.346037 0.181637
0.178722 0.377472 0.169722
0.223096 0.378496 0.170746
0.267470 0.379520 0.171770
0.311844 0.380544 0.172794
0.356218 0.381568 0.173818
0.400592 0.382592 0.174842
0.444966 0.383616 0.175866
0.489340 0.384640 0.176890
0.533714 0.385664 0.177914
0.578088 0.386688 0.178938
0.622462 0.387712 0.179962
0.666836 0.388736 0.180986
0.711210 0.389760 0.182010
0.755584 0.390784 0.183034
0.799958 0.391808 0.184058
0.844332 0.392832 0.185082
0.182167 0.424267 0.173167
0.226541 0.425291 0.174191
0.270915 0.426315 0.175215
0.315289 0.427339 0.176239
0.359663 0.428363 0.177263
0.404037 0.429387 0.178287
0.448411 0.430411 0.179311
0.492785 0.431435 0.180335
0.537159 0.432459 0.181359
0.581533 0.433483 0.182383
0.625907 0.434507 0.183407
0.670281 0.435531 0.184431
0.714655 0.436555 0.185455
0.759029 0.437579 0.186479
0.803403 0.438603 0.187503
0.847777 0.439627 0.188527
0.185612 0.471062 0.176612
0.229986 0.472086 0.177636
0.274360 0.473110 0.178660
0.318734 0.474134 0.179684
0.363108 0.475158 0.180708
0.407482 0.476182 0.181732
0.451856 0.477206 0.182756
0.496230 0.478230 0.183780
0.540604 0.479254 0.184804
0.584978 0.480278 0.185828
0.629352 0.481302 0.186852
0.673726 0.482326 0.187876
0.718100 0.483350 0.188900
0.762474 0.484374 0.189924
0.806848 0.485398 0.190948
0.851222 0.486422 0.191972
0.189056 0.517856 0.180056
0.233430 0.518880 0.181080
0.277804 0.519904 0.182104
0.322179 0.520929 0.183129
0.366553 0.521953 0.184153
0.410927 0.522977 0.185177
0.455301 0.524001 0.186201
0.499675 0.525025 0.187225
0.544049 0.526049 0.188249
0.588423 0.527073 0.189273
0.632797 0.528097 0.190297
0.677171 0.529121 0.191321
0.721545 0.530145 0.192345
0.765919 0.531169 0.193369
0.810293 0.532193 0.194393
0.854667 0.533217 0.195417
0.192501 0.564651 0.183501
0.236875 0.565675 0.184525
0.281249 0.566699 0.185549
0.325623 0.567723 0.186573
0.369997 0.568747 0.187597
0.414371 0.569771 0.188621
0.458745 0.570795 0.189645
0.503119 0.571819 0.190669
0.547494 0.572844 0.191694
0.591868 0.573868 0.192718
0.636242 0.574892 0.193742
0.680616 0.575916 0.194766
0.724990 0.576940 0.195790
0.769364 0.577964 0.196814
0.813738 0.578988 0.197838
0.858112 0.580012 0.198862
0.195946 0.611446 0.186946
0.240320 0.612470 0.187970
0.284694 0.613494 0.188994
0.329068 0.614518 0.190018
0.373442 0.615542 0.191042
0.417816 0.616566 0.192066
0.462190 0.617590 0.193090
0.506564 0.618614 0.194114
0.550938 0.619638 0.195138
0.595312 0.620662 0.196162
0.639686 0.621686 0.197186
0.684060 0.622710 0.198210
0.728434 0.623734 0.199234
0.772809 0.624759 0.200259
0.817183 0.625783 0.201283
0.861557 0.626807 0.202307
0.199391 0.658241 0.190391
0.243765 0.659265 0.191415
0.288139 0.660289 0.192439
0.332513 0.661313 0.193463
0.376887 0.662337 0.194487
0.421261 0.663361 0.195511
0.465635 0.664385 0.196535
0.510009 0.665409 0.197559
0.554383 0.666433 0.198583
0.598757 0.667457 0.199607
0.643131 0.668481 0.200631
0.687505 0.669505 0.201655
0.731879 0.670529 0.202679
0.776253 0.671553 0.203703
0.820627 0.672577 0.204727
0.865001 0.673601 0.205751
0.202836 0.705036 0.193836
0.247210 0.706060 0.194860
0.291584 0.707084 0.195884
0.335958 0.708108 0.196908
0.380332 0.709132 0.197932
0.424706 0.710156 0.198956
0.469080 0.711180 0.199980
0.513454 0.712204 0.201004
0.557828 0.713228 0.202028
0.602202 0.714252 0.203052
0.646576 0.715276 0.204076
0.690950 0.716300 0.205100
0.735324 0.717324 0.206124
0.779698 0.718348 0.207148
0.824072 0.719372 0.208172
0.868446 0.720396 0.209196
0.206281 0.751831 0.197281
0.250655 0.752855 0.198305
0.295029 0.753879 0.199329
0.339403 0.754903 0.200353
0.383777 0.755927 0.201377
0.428151 0.756951 0.202401
0.472525 0.757975 0.203425
0.516899 0.758999 0.204449
0.561273 0.760023 0.205473
0.605647 0.761047 0.206497
0.650021 0.762071 0.207521
0.694395 0.763095 0.208545
0.738769 0.764119 0.209569
0.783143 0.765143 0.210593
0.827517 0.766167 0.211617
0.871891 0.767191 0.212641
0.209726 0.798626 0.200726
0.254100 0.799650 0.201750
0.298474 0.800674 0.202774
0.342848 0.801698 0.203798
0.387222 0.802722 0.204822
0.431596 0.803746 0.205846
0.475970 0.804770 0.206870
0.520344 0.805794 0.207894
0.564718 0.806818 0.208918
0.609092 0.807842 0.209942
0.653466 0.808866 0.210966
0.697840 0.809890 0.211990
0.742214 0.810914 0.213014
0.786588 0.811938 0.214038
0.830962 0.812962 0.215062
0.875336 0.813986 0.216086
0.213171 0.845421 0.204171
0.257545 0.846445 0.205195
0.301919 0.847469 0.206219
0.346293 0.848493 0.207243
0.390667 0.849517 0.208267
0.435041 0.850541 0.209291
0.479415 0.851565 0.210315
0.523789 0.852589 0.211339
0.568163 0.853613 0.212363
0.612537 0.854637 0.213387
0.656911 0.855661 0.214411
0.701285 0.856685 0.215435
0.745659 0.857709 0.216459
0.790033 0.858733 0.217483
0.834407 0.859757 0.218507
0.878781 0.860781 0.219531
0.161845 0.143845 0.196195
0.206219 0.144869 0.197219
0.250593 0.145893 0.198243
0.294967 0.146917 0.199267
0.339341 0.147941 0.200291
0.383715 0.148965 0.201315
0.428089 0.149989 0.202339
0.472463 0.151013 0.203363
0.516837 0.152037 0.204387
0.561211 0.153061 0.205411
0.605585 0.154085 0.206435
0.649959 0.155109 0.207459
0.694333 0.156133 0.208483
0.738707 0.157157 0.209507
0.783081 0.158181 0.210531
0.827456 0.159206 0.211556
0.165290 0.190640 0.199640
0.209664 0.191664 0.200664
0.254038 0.192688 0.201688
0.298412 0.193712 0.202712
0.342786 0.194736 0.203736
0.387160 0.195760 0.204760
0.431534 0.196784 0.205784
0.475908 0.197808 0.206808
0.520282 0.198832 0.207832
0.564656 0.199856 0.208856
0.609030 0.200880 0.209880
0.653404 0.201904 0.210904
0.697778 0.202928 0.211928
0.742152 0.203952 0.212952
0.786526 0.204976 0.213976
0.830900 0.206000 0.215000
0.168735 0.237435 0.203085
0.213109 0.238459 0.204109
0.257483 0.239483 0.205133
0.301857 0.240507 0.206157
0.346231 0.241531 0.207181
0.390605 0.242555 0.208205
0.434979 0.243579 0.209229
0.479353 0.244603 0.210253
0.523727 0.245627 0.211277
0.568101 0.246651 0.212301
0.612475 0.247675 0.213325
0.656849 0.248699 0.214349
0.701223 0.249723 0.215373
0.745597 0.250747 0.216397
0.789971 0.251771 0.217421
0.834345 0.252795 0.218445
0.172180 0.284230 0.206530
0.216554 0.285254 0.207554
0.260928 0.286278 0.208578
0.305302 0.287302 0.209602
0.349676 0.288326 0.210626
0.394050 0.289350 0.211650
0.438424 0.290374 0.212674
0.482798 0.291398 0.213698
0.527172 0.292422 0.214722
0.571546 0.293446 0.215746
0.615920 0.294470 0.216770
0.660294 0.295494 0.217794
0.704668 0.296518 0.218818
0.749042 0.297542 0.219842
0.793416 0.298566 0.220866
0.837790 0.299590 0.221890
0.175625 0.331025 0.209975
0.219999 0.332049 0.210999
0.264373 0.333073 0.212023
0.308747 0.334097 0.213047
0.353121 0.335121 0.214071
0.397495 0.336145 0.215095
0.441869 0.337169 0.216119
0.486243 0.338193 0.217143
0.530617 0.339217 0.218167
0.574991 0.340241 0.219191
0.619365 0.341265 0.220215
0.663739 0.342289 0.221239
0.708113 0.343313 0.222263
0.752487 0.344337 0.223287
0.796861 0.345361 0.224311
0.841235 0.346385 0.225335
0.179070 0.377820 0.213420
0.223444 0.378844 0.214444
0.267818 0.379868 0.215468
0.312192 0.380892 0.216492
0.356566 0.381916 0.217516
0.400940 0.382940 0.218540
0.445314 0.383964 0.219564
0.489688 0.384988 0.220588
0.534062 0.386012 0.221612
0.578436 0.387036 0.222636
0.622810 0.388060 0.223660
0.667184 0.389084 0.224684
0.711558 0.390108 0.225708
0.755932 0.391132 0.226732
0.800306 0.392156 0.227756
0.844680 0.393180 0.228780
0.182514 0.424614 0.216864
0.226888 0.425638 0.217888
0.271262 0.426662 0.218912
0.315637 0.427687 0.219937
0.360011 0.428711 0.220961
0.404385 0.429735 0.221985
0.448759 0.430759 0.223009
0.493133 0.431783 0.224033
0.537507 0.432807 0.225057
0.581881 0.433831 0.226081
0.626255 0.434855 0.227105
0.670629 0.435879 0.228129
0.715003 0.436903 0.229153
0.759377 0.437927 0.230177
0.803751 0.438951 0.231201
0.848125 0.439975 0.232225
0.185959 0.471409 0.220309
0.230333 0.472433 0.221333
0.274707 0.473457 0.222357
0.319081 0.474481 0.223381
0.363455 0.475505 0.224405
0.407829 0.476529 0.225429
0.452203 0.477553 0.226453
0.496577 0.478577 0.227477
0.540952 0.479602 0.228502
0.585326 0.480626 0.229526
0.629700 0.481650 0.230550
0.674074 0.482674 0.231574
0.718448 0.483698 0.232598
0.762822 0.484722 0.233622
0.807196 0.485746 0.234646
0.851570 0.486770 0.235670
0.189404 0.518204 0.223754
0.233778 0.519228 0.224778
0.278152 0.520252 0.225802
0.322526 0.521276 0.226826
0.366900 0.522300 0.227850
0.411274 0.523324 0.228874
0.455648 0.524348 0.229898
0.500022 0.525372 0.230922
0.544396 0.526396 0.231946
0.588770 0.527420 0.232970
0.633144 0.528444 0.233994
0.677518 0.529468 0.235018
0.721892 0.530492 0.236042
0.766267 0.531517 0.237067
0.810641 0.532541 0.238091
0.855015 0.533565 0.239115
0.192849 0.564999 0.227199
0.237223 0.566023 0.228223
0.281597 0.567047 0.229247
0.325971 0.568071 0.230271
0.370345 0.569095 0.231295
0.414719 0.570119 0.232319
0.459093 0.571143 0.233343
0.503467 0.572167 0.234367
0.547841 0.573191 0.235391
0.592215 0.574215 0.236415
0.636589 0.575239 0.237439
0.680963 0.576263 0.238463
0.725337 0.577287 0.239487
0.769711 0.578311 0.240511
0.814085 0.579335 0.241535
0.858459 0.580359 0.242559
0.196294 0.611794 0.230644
0.240668 0.612818 0.231668
0.285042 0.613842 0.232692
0.329416 0.614866 0.233716
0.373790 0.615890 0.234740
0.418164 0.616914 0.235764
0.462538 0.617938 0.236788
0.506912 0.618962 0.237812
0.551286 0.619986 0.238836
0.595660 0.621010 0.239860
0.640034 0.622034 0.240884
0.684408 0.623058 0.241908
0.728782 0.624082 0.242932
0.773156 0.625106 0.243956
0.817530 0.626130 0.244980
0.861904 0.627154 0.246004
0.199739 0.658589 0.234089
0.244113 0.659613 0.235113
0.288487 0.660637 0.236137
0.332861 0.661661 0.237161
0.377235 0.662685 0.238185
0.421609 0.663709 0.239209
0.465983 0.664733 0.240233
0.510357 0.665757 0.241257
0.554731 0.666781 0.242281
0.599105 0.667805 0.243305
0.643479 0.668829 0.244329
0.687853 0.669853 0.245353
0.732227 0.670877 0.246377
0.776601 0.671901 0.247401
0.820975 0.672925 0.248425
0.865349 0.673949 0.249449
0.203184 0.705384 0.237534
0.247558 0.706408 0.238558
0.291932 0.707432 0.239582
0.336306 0.708456 0.240606
0.380680 0.709480 0.241630
0.425054 0.710504 0.242654
0.469428 0.711528 0.243678
0.513802 0.712552 0.244702
0.558176 0.713576 0.245726
0.602550 0.714600 0.246750
0.646924 0.715624 0.247774
0.691298 0.716648 0.248798
0.735672 0.717672 0.249822
0.780046 0.718696 0.250846
0.824420 0.719720 0.251870
0.868794 0.720744 0.252894
0.206629 0.752179 0.240979
0.251003 0.753203 0.242003
0.295377 0.754227 0.243027
0.339751 0.755251 0.244051
0.384125 0.756275 0.245075
0.428499 0.757299 0.246099
0.472873 0.758323 0.247123
0.517247 0.759347 0.248147
0.561621 0.760371 0.249171
0.605995 0.761395 0.250195
0.650369 0.762419 0.251219
0.694743 0.763443 0.252243
0.739117 0.764467 0.253267
0.783491 0.765491 0.254291
0.827865 0.766515 0.255315
0.872239 0.767539 0.256339
0.210073 0.798973 0.244423
0.254448 0.799998 0.245448
0.298822 0.801022 0.246472
0.343196 0.802046 0.247496
0.387570 0.803070 0.248520
0.431944 0.804094 0.249544
0.476318 0.805118 0.250568
0.520692 0.806142 0.251592
0.565066 0.807166 0.252616
0.609440 0.808190 0.253640
0.653814 0.809214 0.254664
0.698188 0.810238 0.255688
0.742562 0.811262 0.256712
0.786936 0.812286 0.257736
0.831310 0.813310 0.258760
0.875684 0.814334 0.259784
0.213518 0.845768 0.247868
0.257892 0.846792 0.248892
0.302266 0.847816 0.249916
0.346640 0.848840 0.250940
0.391014 0.849864 0.251964
0.435388 0.850888 0.252988
0.479763 0.851913 0.254013
0.524137 0.852937 0.255037
0.568511 0.853961 0.256061
0.612885 0.854985 0.257085
0.657259 0.856009 0.258109
0.701633 0.857033 0.259133
0.746007 0.858057 0.260157
0.790381 0.859081 0.261181
0.834755 0.860105 0.262205
0.879129 0.861129 0.263229
0.162193 0.144193 0.239893
0.206567 0.145217 0.240917
0.250941 0.146241 0.241941
0.295315 0.147265 0.242965
0.339689 0.148289 0.243989
0.384063 0.149313 0.245013
0.428437 0.150337 0.246037
0.472811 0.151361 0.247061
0.517185 0.152385 0.248085
0.561559 0.153409 0.249109
0.605933 0.154433 0.250133
0.650307 0.155457 0.251157
0.694681 0.156481 0.252181
0.739055 0.157505 0.253205
0.783429 0.158529 0.254229
0.827803 0.159553 0.255253
0.165638 0.190988 0.243338
0.210012 0.192012 0.244362
0.254386 0.193036 0.245386
0.298760 0.194060 0.246410
0.343134 0.195084 0.247434
0.387508 0.196108 0.248458
0.431882 0.197132 0.249482
0.476256 0.198156 0.250506
0.520630 0.199180 0.251530
0.565004 0.200204 0.252554
0.609378 0.201228 0.253578
0.653752 0.202252 0.254602
0.698126 0.203276 0.255626
0.742500 0.204300 0.256650
0.786874 0.205324 0.257674
0.831248 0.206348 0.258698
0.169083 0.237783 0.246783
0.213457 0.238807 0.247807
0.257831 0.239831 0.248831
0.302205 0.240855 0.249855
0.346579 0.241879 0.250879
0.390953 0.242903 0.251903
0.435327 0.243927 0.252927
0.479701 0.244951 0.253951
0.524075 0.245975 0.254975
0.568449 0.246999 0.255999
0.612823 0.248023 0.257023
0.657197 0.249047 0.258047
0.701571 0.250071 0.259071
0.745945 0.251095 0.260095
0.790319 0.252119 0.261119
0.834693 0.253143 0.262143
0.172528 0.284578 0.250228
0.216902 0.285602 0.251252
0.261276 0.286626 0.252276
0.305650 0.287650 0.253300
0.350024 0.288674 0.254324
0.394398 0.289698 0.255348
0.438772 0.290722 0.256372
0.483146 0.291746 0.257396
0.527520 0.292770 0.258420
0.571894 0.293794 0.259444
0.616268 0.294818 0.260468
0.660642 0.295842 0.261492
0.705016 0.296866 0.262516
0.749390 0.297890 0.263540
0.793764 0.298914 0.264564
0.838138 0.299938 0.265588
0.175972 0.331372 0.253672
0.220346 0.332396 0.254696
0.264720 0.333420 0.255720
0.309095 0.334445 0.256745
0.353469 0.335469 0.257769
0.397843 0.336493 0.258793
0.442217 0.337517 0.259817
0.486591 0.338541 0.260841
0.530965 0.339565 0.261865
0.575339 0.340589 0.262889
0.619713 0.341613 0.263913
0.664087 0.342637 0.264937
0.708461 0.343661 0.265961
0.752835 0.344685 0.266985
0.797209 0.345709 0.268009
0.841583 0.346733 0.269033
0.179417 0.378167 0.257117
0.223791 0.379191 0.258141
0.268165 0.380215 0.259165
0.312539 0.381239 0.260189
0.356913 0.382263 0.261213
0.401287 0.383287 0.262237
0.445661 0.384311 0.263261
0.490035 0.385335 0.264285
0.534410 0.386360 0.265310
0.578784 0.387384 0.266334
0.623158 0.388408 0.267358
0.667532 0.389432 0.268382
0.711906 0.390456 0.269406
0.756280 0.391480 0.270430
0.800654 0.392504 0.271454
0.845028 0.393528 0.272478
0.182862 0.424962 0.260562
0.227236 0.425986 0.261586
0.271610 0.427010 0.262610
0.315984 0.428034 0.263634
0.360358 0.429058 0.264658
0.404732 0.430082 0.265682
0.449106 0.431106 0.266706
0.493480 0.432130 0.267730
0.537854 0.433154 0.268754
0.582228 0.434178 0.269778
0.626602 0.435202 0.270802
0.670976 0.436226 0.271826
0.715350 0.437250 0.272850
0.759725 0.438275 0.273875
0.804099 0.439299 0.274899
0.848473 0.440323 0.275923
0.186307 0.471757 0.264007
0.230681 0.472781 0.265031
0.275055 0.473805 0.266055
0.319429 0.474829 0.267079
0.363803 0.475853 0.268103
0.408177 0.476877 0.269127
0.452551 0.477901 0.270151
0.496925 0.478925 0.271175
0.541299 0.479949 0.272199
0.585673 0.480973 0.273223
0.630047 0.481997 0.274247
0.674421 0.483021 0.275271
0.718795 0.484045 0.276295
0.763169 0.485069 0.277319
0.807543 0.486093 0.278343
0.851917 0.487117 0.279367
0.189752 0.518552 0.267452
0.234126 0.519576 0.268476
0.278500 0.520600 0.269500
0.322874 0.521624 0.270524
0.367248 0.522648 0.271548
0.411622 0.523672 0.272572
0.455996 0.524696 0.273596
0.500370 0.525720 0.274620
0.544744 0.526744 0.275644
0.589118 0.527768 0.276668
0.633492 0.528792 0.277692
0.677866 0.529816 0.278716
0.722240 0.530840 0.279740
0.766614 0.531864 0.280764
0.810988 0.532888 0.281788
0.855362 0.533912 0.282812
0.193197 0.565347 0.270897
0.237571 0.566371 0.271921
0.281945 0.567395 0.272945
0.326319 0.568419 0.273969
0.370693 0.569443 0.274993
0.415067 0.570467 0.276017
0.459441 0.571491 0.277041
0.503815 0.572515 0.278065
0.548189 0.573539 0.279089
0.592563 0.574563 0.280113
0.636937 0.575587 0.281137
0.681311 0.576611 0.282161
0.725685 0.577635 0.283185
0.770059 0.578659 0.284209
0.814433 0.579683 0.285233
0.858807 0.580707 0.286257
0.196642 0.612142 0.274342
0.241016 0.613166 0.275366
0.285390 0.614190 0.276390
0.329764 0.615214 0.277414
0.374138 0.616238 0.278438
0.418512 0.617262 0.279462
0.462886 0.618286 0.280486
0.507260 0.619310 0.281510
0.551634 0.620334 0.282534
0.596008 0.621358 0.283558
0.640382 0.622382 0.284582
0.684756 0.623406 0.285606
0.729130 0.624430 0.286630
0.773504 0.625454 0.287654
0.817878 0.626478 0.288678
0.862252 0.627502 0.289702
0.200087 0.658937 0.277787
0.244461 0.659961 0.278811
0.288835 0.660985 0.279835
0.333209 0.662009 0.280859
0.377583 0.663033 0.281883
0.421957 0.664057 0.282907
0.466331 0.665081 0.283931
0.510705 0.666105 0.284955
0.555079 0.667129 0.285979
0.599453 0.668153 0.287003
0.643827 0.669177 0.288027
0.688201 0.670201 0.289051
0.732575 0.671225 0.290075
0.776949 0.672249 0.291099
0.821323 0.673273 0.292123
0.865697 0.674297 0.293147
0.203531 0.705731 0.281231
0.247906 0.706756 0.282256
0.292280 0.707780 0.283280
0.336654 0.708804 0.284304
0.381028 0.709828 0.285328
0.425402 0.710852 0.286352
0.469776 0.711876 0.287376
0.514150 0.712900 0.288400
0.558524 0.713924 0.289424
0.602898 0.714948 0.290448
0.647272 0.715972 0.291472
0.691646 0.716996 0.292496
0.736020 0.718020 0.293520
0.780394 0.719044 0.294544
0.824768 0.720068 0.295568
0.869142 0.721092 0.296592
0.206976 0.752526 0.284676
0.251350 0.753550 0.285700
0.295724 0.754574 0.286724
0.340098 0.755598 0.287748
0.384472 0.756622 0.288772
0.428846 0.757646 0.289796
0.473221 0.758671 0.290821
0.517595 0.759695 0.291845
0.561969 0.760719 0.292869
0.606343 0.761743 0.293893
0.650717 0.762767 0.294917
0.695091 0.763791 0.295941
0.739465 0.764815 0.296965
0.783839 0.765839 0.297989
0.828213 0.766863 0.299013
0.872587 0.767887 0.300037
0.210421 0.799321 0.288121
0.254795 0.800345 0.289145
0.299169 0.801369 0.290169
0.343543 0.802393 0.291193
0.387917 0.803417 0.292217
0.432291 0.804441 0.293241
0.476665 0.805465 0.294265
0.521039 0.806489 0.295289
0.565413 0.807513 0.296313
0.609787 0.808537 0.297337
0.654161 0.809561 0.298361
0.698536 0.810586 0.299386
0.742910 0.811610 0.300410
0.787284 0.812634 0.301434
0.831658 0.813658 0.302458
0.876032 0.814682 0.303482
0.213866 0.846116 0.291566
0.258240 0.847140 0.292590
0.302614 0.848164 0.293614
0.346988 0.849188 0.294638
0.391362 0.850212 0.295662
0.435736 0.851236 0.296686
0.480110 0.852260 0.297710
0.524484 0.853284 0.298734
0.568858 0.854308 0.299758
0.613232 0.855332 0.300782
0.657606 0.856356 0.301806
0.701980 0.857380 0.302830
0.746354 0.858404 0.303854
0.790728 0.859428 0.304878
0.835102 0.860452 0.305902
0.879476 0.861476 0.306926
0.162541 0.144541 0.283591
0.206915 0.145565 0.284615
0.251289 0.146589 0.285639
0.295663 0.147613 0.286663
0.340037 0.148637 0.287687
0.384411 0.149661 0.288711
0.428785 0.150685 0.289735
0.473159 0.151709 0.290759
0.517533 0.152733 0.291783
0.561907 0.153757 0.292807
0.606281 0.154781 0.293831
0.650655 0.155805 0.294855
0.695029 0.156829 0.295879
0.739403 0.157853 0.296903
0.783777 0.158877 0.297927
0.828151 0.159901 0.298951
0.165986 0.191336 0.287036
0.210360 0.192360 0.288060
0.254734 0.193384 0.289084
0.299108 0.194408 0.290108
0.343482 0.195432 0.291132
0.387856 0.196456 0.292156
0.432230 0.197480 0.293180
0.476604 0.198504 0.294204
0.520978 0.199528 0.295228
0.565352 0.200552 0.296252
0.609726 0.201576 0.297276
0.654100 0.202600 0.298300
0.698474 0.203624 0.299324
0.742848 0.204648 0.300348
0.787222 0.205672 0.301372
0.831596 0.206696 0.302396
0.169430 0.238130 0.290480
0.213804 0.239154 0.291504
0.258178 0.240178 0.292528
0.302553 0.241203 0.293553
0.346927 0.242227 0.294577
0.391301 0.243251 0.295601
0.435675 0.244275 0.296625
0.480049 0.245299 0.297649
0.524423 0.246323 0.298673
0.568797 0.247347 0.299697
0.613171 0.248371 0.300721
0.657545 0.249395 0.301745
0.701919 0.250419 0.302769
0.746293 0.251443 0.303793
0.790667 0.252467 0.304817
0.835041 0.253491 0.305841
0.172875 0.284925 0.293925
0.217249 0.285949 0.294949
0.261623 0.286973 0.295973
0.305997 0.287997 0.296997
0.350371 0.289021 0.298021
0.394745 0.290045 0.299045
0.439119 0.291069 0.300069
0.483493 0.292093 0.301093
0.527868 0.293118 0.302118
0.572242 0.294142 0.303142
0.616616 0.295166 0.304166
0.660990 0.296190 0.305190
0.705364 0.297214 0.306214
0.749738 0.298238 0.307238
0.794112 0.299262 0.308262
0.838486 0.300286 0.309286
0.176320 0.331720 0.297370
0.220694 0.332744 0.298394
0.265068 0.333768 0.299418
0.309442 0.334792 0.300442
0.353816 0.335816 0.301466
0.398190 0.336840 0.302490
0.442564 0.337864 0.303514
0.486938 0.338888 0.304538
0.531312 0.339912 0.305562
0.575686 0.340936 0.306586
0.620060 0.341960 0.307610
0.664434 0.342984 0.308634
0.708808 0.344008 0.309658
0.753183 0.345033 0.310683
0.797557 0.346057 0.311707
0.841931 0.347081 0.312731
0.179765 0.378515 0.300815
0.224139 0.379539 0.301839
0.268513 0.380563 0.302863
0.312887 0.381587 0.303887
0.357261 0.382611 0.304911
0.401635 0.383635 0.305935
0.446009 0.384659 0.306959
0.490383 0.385683 0.307983
0.534757 0.386707 0.309007
0.579131 0.387731 0.310031
0.623505 0.388755 0.311055
0.667879 0.389779 0.312079
0.712253 0.390803 0.313103
0.756627 0.391827 0.314127
0.801001 0.392851 0.315151
0.845375 0.393875 0.316175
0.183210 0.425310 0.304260
0.227584 0.426334 0.305284
0.271958 0.427358 0.306308
0.316332 0.428382 0.307332
0.360706 0.429406 0.308356
0.405080 0.430430 0.309380
0.449454 0.431454 0.310404
0.493828 0.432478 0.311428
0.538202 0.433502 0.312452
0.582576 0.434526 0.313476
0.626950 0.435550 0.314500
0.671324 0.436574 0.315524
0.715698 0.437598 0.316548
0.760072 0.438622 0.317572
0.804446 0.439646 0.318596
0.848820 0.440670 0.319620
0.186655 0.472105 0.307705
0.231029 0.473129 0.308729
0.275403 0.474153 0.309753
0.319777 0.475177 0.310777
0.364151 0.476201 0.311801
0.408525 0.477225 0.312825
0.452899 0.478249 0.313849
