public/lut/cinematic-warm.cube
TITLE "cinematic-warm"
LUT_3D_SIZE 6
0.213478 0.233043 0.236957
0.278606 0.232773 0.235066
0.397490 0.232281 0.231616
0.609104 0.231403 0.225474
0.727988 0.230910 0.222024
0.793115 0.230640 0.220133
0.218929 0.295643 0.230598
0.284057 0.295373 0.228707
0.402941 0.294880 0.225257
0.614554 0.294002 0.219115
0.733438 0.293509 0.215665
0.798566 0.293239 0.213775
0.228878 0.409911 0.218990
0.294006 0.409641 0.217100
0.412890 0.409148 0.213649
0.624503 0.408271 0.207508
0.743387 0.407778 0.204057
0.808515 0.407508 0.202167
0.246588 0.613309 0.198329
0.311307 0.613311 0.197119
0.428712 0.613804 0.196133
0.637694 0.614681 0.194378
0.755099 0.615174 0.193393
0.819417 0.615444 0.192853
0.251964 0.730625 0.194343
0.316282 0.730895 0.193803
0.433687 0.731388 0.192817
0.642669 0.732266 0.191062
0.760074 0.732759 0.190076
0.824391 0.733029 0.189536
0.254689 0.795041 0.192526
0.319007 0.795311 0.191986
0.436412 0.795804 0.191000
0.645394 0.796682 0.189245
0.762799 0.797175 0.188259
0.827117 0.797445 0.187719
0.214028 0.232952 0.299822
0.279156 0.232682 0.297932
0.398040 0.232189 0.294481
0.609654 0.231311 0.288340
0.728538 0.230819 0.284889
0.793666 0.230548 0.282999
0.219479 0.295551 0.293463
0.284607 0.295281 0.291573
0.403491 0.294788 0.288123
0.615104 0.293911 0.281981
0.733988 0.293418 0.278530
0.799116 0.293148 0.276640
0.229428 0.409819 0.281856
0.294556 0.409549 0.279966
0.413440 0.409056 0.276515
0.625054 0.408179 0.270373
0.743938 0.407686 0.266923
0.809065 0.407416 0.265033
0.247138 0.613217 0.261194
0.311582 0.613402 0.260443
0.428988 0.613895 0.259457
0.637969 0.614773 0.257703
0.755374 0.615266 0.256717
0.819692 0.615536 0.256177
0.252239 0.730717 0.257667
0.316557 0.730987 0.257127
0.433962 0.731480 0.256141
0.642944 0.732357 0.254386
0.760349 0.732850 0.253400
0.824667 0.733120 0.252860
0.254965 0.795133 0.255850
0.319282 0.795403 0.255310
0.436687 0.795896 0.254324
0.645669 0.796773 0.252569
0.763074 0.797266 0.251584
0.827392 0.797536 0.251043
0.215033 0.232784 0.414577
0.280161 0.232514 0.412687
0.399045 0.232021 0.409236
0.610658 0.231144 0.403094
0.729542 0.230651 0.399644
0.794670 0.230381 0.397754
0.220483 0.295384 0.408218
0.285611 0.295114 0.406328
0.404495 0.294621 0.402877
0.616109 0.293743 0.396736
0.734993 0.293250 0.393285
0.800121 0.292980 0.391395
0.230433 0.409652 0.396611
0.295560 0.409382 0.394720
0.414444 0.408889 0.391270
0.626058 0.408011 0.385128
0.744942 0.407519 0.381678
0.810070 0.407249 0.379787
0.247767 0.613300 0.376575
0.312084 0.613570 0.376035
0.429490 0.614063 0.375049
0.638471 0.614940 0.373294
0.755876 0.615433 0.372309
0.820194 0.615703 0.371768
0.252741 0.730885 0.373259
0.317059 0.731155 0.372719
0.434464 0.731647 0.371733
0.643446 0.732525 0.369978
0.760851 0.733018 0.368992
0.825169 0.733288 0.368452
0.255467 0.795300 0.371442
0.319784 0.795571 0.370902
0.437190 0.796063 0.369916
0.646171 0.796941 0.368161
0.763576 0.797434 0.367175
0.827894 0.797704 0.366635
0.216821 0.232486 0.618840
0.281948 0.232216 0.616950
0.400833 0.231723 0.613500
0.612446 0.230846 0.607358
0.731330 0.230353 0.603907
0.796458 0.230083 0.602017
0.222271 0.295086 0.612481
0.287399 0.294816 0.610591
0.406283 0.294323 0.607141
0.617897 0.293445 0.600999
0.736781 0.292952 0.597549
0.801908 0.292682 0.595658
0.232220 0.409354 0.600874
0.297348 0.409084 0.598984
0.416232 0.408591 0.595533
0.627846 0.407714 0.589391
0.746730 0.407221 0.585941
0.811858 0.406951 0.584051
0.248661 0.613598 0.582328
0.312978 0.613868 0.581788
0.430384 0.614361 0.580802
0.639365 0.615238 0.579048
0.756770 0.615731 0.578062
0.821088 0.616001 0.577522
0.253635 0.731182 0.579012
0.317953 0.731453 0.578472
0.435358 0.731945 0.577486
0.644340 0.732823 0.575731
0.761745 0.733316 0.574745
0.826063 0.733586 0.574205
0.256361 0.795598 0.577195
0.320678 0.795868 0.576655
0.438084 0.796361 0.575669
0.647065 0.797239 0.573914
0.764470 0.797732 0.572929
0.828788 0.798002 0.572388
0.217825 0.232319 0.733595
0.282953 0.232049 0.731705
0.401837 0.231556 0.728254
0.613450 0.230679 0.722113
0.732335 0.230186 0.718662
0.797462 0.229916 0.716772
0.223276 0.294918 0.727236
0.288403 0.294648 0.725346
0.407287 0.294155 0.721895
0.618901 0.293278 0.715754
0.737785 0.292785 0.712303
0.802913 0.292515 0.710413
0.233225 0.409186 0.715629
0.298353 0.408916 0.713738
0.417237 0.408424 0.710288
0.628850 0.407546 0.704146
0.747734 0.407053 0.700696
0.812735 0.406868 0.699017
0.249163 0.613765 0.697920
0.313481 0.614035 0.697380
0.430886 0.614528 0.696394
0.639867 0.615405 0.694639
0.757273 0.615898 0.693654
0.821590 0.616168 0.693113
0.254138 0.731350 0.694604
0.318455 0.731620 0.694064
0.435861 0.732113 0.693078
0.644842 0.732990 0.691323
0.762247 0.733483 0.690337
0.826565 0.733753 0.689797
0.256863 0.795766 0.692787
0.321180 0.796036 0.692247
0.438586 0.796529 0.691261
0.647567 0.797406 0.689506
0.764972 0.797899 0.688520
0.829290 0.798169 0.687980
0.218375 0.232227 0.796461
0.283503 0.231957 0.794570
0.402387 0.231464 0.791120
0.614001 0.230587 0.784978
0.732885 0.230094 0.781528
0.798013 0.229824 0.779638
0.223826 0.294826 0.790102
0.288954 0.294556 0.788212
0.407838 0.294064 0.784761
0.619451 0.293186 0.778619
0.738335 0.292693 0.775169
0.803463 0.292423 0.773279
0.233775 0.409095 0.778494
0.298903 0.408825 0.776604
0.417787 0.408332 0.773154
0.629400 0.407454 0.767012
0.748284 0.406962 0.763561
0.813010 0.406959 0.762341
0.249438 0.613857 0.761244
0.313756 0.614127 0.760704
0.431161 0.614620 0.759718
0.640142 0.615497 0.757964
0.757548 0.615990 0.756978
0.821865 0.616260 0.756438
0.254413 0.731442 0.757928
0.318730 0.731712 0.757388
0.436136 0.732205 0.756402
0.645117 0.733082 0.754647
0.762522 0.733575 0.753661
0.826840 0.733845 0.753121
0.257138 0.795858 0.756111
0.321456 0.796128 0.755571
0.438861 0.796621 0.754585
0.647842 0.797498 0.752830
0.765248 0.797991 0.751844
0.829565 0.798261 0.751304
