public/lut/cinematic-warm.cube
TITLE "cinematic-warm"
LUT_3D_SIZE 16
0.213478 0.233043 0.236957
0.231649 0.232968 0.236429
0.253044 0.232879 0.235808
0.278606 0.232773 0.235066
0.309684 0.232645 0.234164
0.348278 0.232485 0.233044
0.397490 0.232281 0.231616
0.462402 0.232011 0.229732
0.544192 0.231672 0.227358
0.609104 0.231403 0.225474
0.658316 0.231199 0.224046
0.696910 0.231039 0.222926
0.727988 0.230910 0.222024
0.753550 0.230804 0.221282
0.774945 0.230716 0.220661
0.793115 0.230640 0.220133
0.214999 0.250508 0.235182
0.233169 0.250433 0.234655
0.254565 0.250344 0.234034
0.280127 0.250238 0.233292
0.311204 0.250110 0.232390
0.349798 0.249950 0.231270
0.399011 0.249745 0.229842
0.463923 0.249476 0.227958
0.545712 0.249137 0.225584
0.610624 0.248868 0.223700
0.659837 0.248664 0.222272
0.698431 0.248504 0.221152
0.729508 0.248375 0.220250
0.755070 0.248269 0.219508
0.776466 0.248180 0.218887
0.794636 0.248105 0.218359
0.216789 0.271073 0.233093
0.234960 0.270998 0.232566
0.256355 0.270909 0.231945
0.281917 0.270803 0.231203
0.312995 0.270674 0.230301
0.351589 0.270514 0.229181
0.400801 0.270310 0.227753
0.465713 0.270041 0.225869
0.547503 0.269702 0.223495
0.612415 0.269433 0.221611
0.661627 0.269229 0.220183
0.700221 0.269069 0.219063
0.731299 0.268940 0.218161
0.756861 0.268834 0.217419
0.778256 0.268745 0.216798
0.796427 0.268670 0.216270
0.218929 0.295643 0.230598
0.237099 0.295567 0.230070
0.258494 0.295479 0.229449
0.284057 0.295373 0.228707
0.315134 0.295244 0.227805
0.353728 0.295084 0.226685
0.402941 0.294880 0.225257
0.467853 0.294611 0.223373
0.549642 0.294271 0.220999
0.614554 0.294002 0.219115
0.663767 0.293798 0.217687
0.702361 0.293638 0.216567
0.733438 0.293509 0.215665
0.759000 0.293403 0.214923
0.780396 0.293315 0.214302
0.798566 0.293239 0.213775
0.221530 0.325514 0.227563
0.239700 0.325438 0.227036
0.261095 0.325350 0.226415
0.286657 0.325244 0.225673
0.317735 0.325115 0.224771
0.356329 0.324955 0.223651
0.405541 0.324751 0.222223
0.470454 0.324482 0.220339
0.552243 0.324142 0.217965
0.617155 0.323873 0.216081
0.666367 0.323669 0.214653
0.704961 0.323509 0.213532
0.736039 0.323380 0.212630
0.761601 0.323274 0.211889
0.782996 0.323186 0.211268
0.801167 0.323110 0.210740
0.224759 0.362609 0.223795
0.242930 0.362534 0.223268
0.264325 0.362445 0.222647
0.289887 0.362339 0.221905
0.320965 0.362210 0.221003
0.359559 0.362050 0.219883
0.408771 0.361846 0.218454
0.473683 0.361577 0.216570
0.555473 0.361238 0.214197
0.620385 0.360969 0.212313
0.669597 0.360765 0.210884
0.708191 0.360605 0.209764
0.739269 0.360476 0.208862
0.764831 0.360370 0.208120
0.786226 0.360281 0.207499
0.804397 0.360206 0.206972
0.228878 0.409911 0.218990
0.247048 0.409836 0.218463
0.268444 0.409747 0.217842
0.294006 0.409641 0.217100
0.325083 0.409512 0.216198
0.363677 0.409352 0.215078
0.412890 0.409148 0.213649
0.477802 0.408879 0.211765
0.559591 0.408540 0.209392
0.624503 0.408271 0.207508
0.673716 0.408067 0.206079
0.712310 0.407907 0.204959
0.743387 0.407778 0.204057
0.768950 0.407672 0.203315
0.790345 0.407583 0.202694
0.808515 0.407508 0.202167
0.234310 0.472303 0.212652
0.252481 0.472228 0.212125
0.273876 0.472139 0.211504
0.299438 0.472033 0.210762
0.330516 0.471904 0.209860
0.369110 0.471744 0.208740
0.418322 0.471540 0.207312
0.483234 0.471271 0.205428
0.565024 0.470932 0.203054
0.629936 0.470662 0.201170
0.679148 0.470458 0.199742
0.717742 0.470298 0.198621
0.748820 0.470170 0.197719
0.774205 0.470182 0.197273
0.795334 0.470271 0.197096
0.813278 0.470346 0.196945
0.241155 0.550917 0.204667
0.259326 0.550841 0.204139
0.280721 0.550753 0.203518
0.306283 0.550647 0.202776
0.337361 0.550518 0.201874
0.375955 0.550358 0.200754
0.425167 0.550154 0.199326
0.490079 0.549885 0.197442
0.570873 0.550209 0.196728
0.634978 0.550478 0.196189
0.683578 0.550682 0.195781
0.721692 0.550842 0.195461
0.752383 0.550971 0.195203
0.777627 0.551077 0.194991
0.798756 0.551166 0.194814
0.816701 0.551241 0.194663
0.246588 0.613309 0.198329
0.264758 0.613233 0.197801
0.286063 0.613205 0.197331
0.311307 0.613311 0.197119
0.341998 0.613440 0.196861
0.380112 0.613600 0.196541
0.428712 0.613804 0.196133
0.492817 0.614073 0.195595
0.573589 0.614412 0.194917
0.637694 0.614681 0.194378
0.686294 0.614885 0.193970
0.724408 0.615045 0.193650
0.755099 0.615174 0.193393
0.780343 0.615280 0.193181
0.801472 0.615369 0.193003
0.819417 0.615444 0.192853
0.249049 0.661715 0.196286
0.266993 0.661791 0.196136
0.288122 0.661879 0.195958
0.313366 0.661985 0.195746
0.344057 0.662114 0.195489
0.382171 0.662274 0.195169
0.430772 0.662478 0.194760
0.494876 0.662747 0.194222
0.575648 0.663086 0.193544
0.639753 0.663356 0.193006
0.688353 0.663560 0.192598
0.726467 0.663720 0.192277
0.757158 0.663849 0.192020
0.782403 0.663955 0.191808
0.803532 0.664043 0.191630
0.821476 0.664119 0.191480
0.250664 0.699887 0.195210
0.268608 0.699963 0.195059
0.289737 0.700052 0.194882
0.314981 0.700158 0.194670
0.345672 0.700286 0.194412
0.383786 0.700446 0.194092
0.432387 0.700650 0.193684
0.496491 0.700920 0.193145
0.577263 0.701259 0.192467
0.641368 0.701528 0.191929
0.689968 0.701732 0.191521
0.728082 0.701892 0.191201
0.758773 0.702021 0.190943
0.784017 0.702127 0.190731
0.805147 0.702215 0.190554
0.823091 0.702291 0.190403
0.251964 0.730625 0.194343
0.269909 0.730701 0.194192
0.291038 0.730789 0.194015
0.316282 0.730895 0.193803
0.346973 0.731024 0.193545
0.385087 0.731184 0.193225
0.433687 0.731388 0.192817
0.497792 0.731658 0.192279
0.578564 0.731997 0.191600
0.642669 0.732266 0.191062
0.691269 0.732470 0.190654
0.729383 0.732630 0.190334
0.760074 0.732759 0.190076
0.785318 0.732865 0.189864
0.806447 0.732953 0.189687
0.824391 0.733029 0.189536
0.253034 0.755908 0.193630
0.270978 0.755983 0.193479
0.292107 0.756072 0.193302
0.317351 0.756178 0.193090
0.348042 0.756307 0.192832
0.386156 0.756467 0.192512
0.434757 0.756671 0.192104
0.498861 0.756940 0.191565
0.579633 0.757279 0.190887
0.643738 0.757548 0.190349
0.692338 0.757753 0.189941
0.730452 0.757913 0.189621
0.761143 0.758041 0.189363
0.786388 0.758147 0.189151
0.807517 0.758236 0.188974
0.825461 0.758311 0.188823
0.253929 0.777070 0.193033
0.271873 0.777145 0.192882
0.293003 0.777234 0.192705
0.318247 0.777340 0.192493
0.348938 0.777468 0.192235
0.387052 0.777628 0.191915
0.435652 0.777832 0.191507
0.499757 0.778102 0.190969
0.580529 0.778441 0.190290
0.644633 0.778710 0.189752
0.693234 0.778914 0.189344
0.731348 0.779074 0.189024
0.762039 0.779203 0.188766
0.787283 0.779309 0.188554
0.808412 0.779397 0.188377
0.826356 0.779473 0.188226
0.254689 0.795041 0.192526
0.272634 0.795117 0.192375
0.293763 0.795205 0.192198
0.319007 0.795311 0.191986
0.349698 0.795440 0.191728
0.387812 0.795600 0.191408
0.436412 0.795804 0.191000
0.500517 0.796073 0.190462
0.581289 0.796413 0.189783
0.645394 0.796682 0.189245
0.693994 0.796886 0.188837
0.732108 0.797046 0.188517
0.762799 0.797175 0.188259
0.788043 0.797281 0.188047
0.809172 0.797369 0.187870
0.827117 0.797445 0.187719
0.213632 0.233018 0.254496
0.231802 0.232943 0.253968
0.253197 0.232854 0.253348
0.278760 0.232748 0.252606
0.309837 0.232619 0.251704
0.348431 0.232459 0.250583
0.397644 0.232255 0.249155
0.462556 0.231986 0.247271
0.544345 0.231647 0.244897
0.609257 0.231378 0.243013
0.658470 0.231173 0.241585
0.697064 0.231013 0.240465
0.728141 0.230885 0.239563
0.753703 0.230779 0.238821
0.775099 0.230690 0.238200
0.793269 0.230615 0.237673
0.215152 0.250483 0.252722
0.233323 0.250408 0.252194
0.254718 0.250319 0.251573
0.280280 0.250213 0.250831
0.311358 0.250084 0.249930
0.349952 0.249924 0.248809
0.399164 0.249720 0.247381
0.464076 0.249451 0.245497
0.545866 0.249112 0.243123
0.610778 0.248843 0.241239
0.659990 0.248638 0.239811
0.698584 0.248478 0.238691
0.729662 0.248350 0.237789
0.755224 0.248244 0.237047
0.776619 0.248155 0.236426
0.794790 0.248080 0.235899
0.216943 0.271047 0.250633
0.235113 0.270972 0.250105
0.256509 0.270883 0.249484
0.282071 0.270777 0.248743
0.313148 0.270649 0.247841
0.351742 0.270489 0.246720
0.400955 0.270284 0.245292
0.465867 0.270015 0.243408
0.547656 0.269676 0.241034
0.612568 0.269407 0.239150
0.661781 0.269203 0.237722
0.700375 0.269043 0.236602
0.731452 0.268914 0.235700
0.757015 0.268808 0.234958
0.778410 0.268719 0.234337
0.796580 0.268644 0.233810
0.219082 0.295617 0.248137
0.237253 0.295542 0.247610
0.258648 0.295453 0.246989
0.284210 0.295347 0.246247
0.315288 0.295218 0.245345
0.353882 0.295058 0.244225
0.403094 0.294854 0.242796
0.468006 0.294585 0.240912
0.549796 0.294246 0.238538
0.614708 0.293977 0.236654
0.663920 0.293773 0.235226
0.702514 0.293613 0.234106
0.733592 0.293484 0.233204
0.759154 0.293378 0.232462
0.780549 0.293289 0.231841
0.798719 0.293214 0.231314
0.221683 0.325488 0.245103
0.239854 0.325413 0.244575
0.261249 0.325324 0.243954
0.286811 0.325218 0.243212
0.317888 0.325089 0.242310
0.356482 0.324929 0.241190
0.405695 0.324725 0.239762
0.470607 0.324456 0.237878
0.552396 0.324117 0.235504
0.617308 0.323848 0.233620
0.666521 0.323644 0.232192
0.705115 0.323484 0.231072
0.736193 0.323355 0.230170
0.761755 0.323249 0.229428
0.783150 0.323160 0.228807
0.801320 0.323085 0.228279
0.224913 0.362584 0.241334
0.243083 0.362508 0.240807
0.264479 0.362420 0.240186
0.290041 0.362314 0.239444
0.321118 0.362185 0.238542
0.359712 0.362025 0.237422
0.408925 0.361821 0.235994
0.473837 0.361552 0.234110
0.555626 0.361212 0.231736
0.620538 0.360943 0.229852
0.669751 0.360739 0.228424
0.708345 0.360579 0.227304
0.739422 0.360450 0.226402
0.764985 0.360344 0.225660
0.786380 0.360256 0.225039
0.804550 0.360180 0.224511
0.229032 0.409885 0.236529
0.247202 0.409810 0.236002
0.268597 0.409721 0.235381
0.294159 0.409615 0.234639
0.325237 0.409486 0.233737
0.363831 0.409326 0.232617
0.413043 0.409122 0.231189
0.477955 0.408853 0.229305
0.559745 0.408514 0.226931
0.624657 0.408245 0.225047
0.673869 0.408041 0.223619
0.712463 0.407881 0.222499
0.743541 0.407752 0.221597
0.769103 0.407646 0.220855
0.790498 0.407557 0.220234
0.808669 0.407482 0.219706
0.234464 0.472277 0.230192
0.252634 0.472202 0.229664
0.274030 0.472113 0.229043
0.299592 0.472007 0.228301
0.330669 0.471878 0.227399
0.369263 0.471718 0.226279
0.418476 0.471514 0.224851
0.483388 0.471245 0.222967
0.565177 0.470906 0.220593
0.630089 0.470637 0.218709
0.679302 0.470433 0.217281
0.717896 0.470273 0.216161
0.748973 0.470144 0.215259
0.774281 0.470207 0.214940
0.795411 0.470296 0.214763
0.813355 0.470371 0.214612
0.241309 0.550891 0.222206
0.259479 0.550816 0.221679
0.280874 0.550727 0.221058
0.306437 0.550621 0.220316
0.337514 0.550492 0.219414
0.376108 0.550332 0.218294
0.425321 0.550128 0.216865
0.490178 0.549896 0.215073
0.570950 0.550235 0.214395
0.635054 0.550504 0.213857
0.683655 0.550708 0.213448
0.721769 0.550868 0.213128
0.752460 0.550997 0.212871
0.777704 0.551103 0.212659
0.798833 0.551192 0.212481
0.816777 0.551267 0.212331
0.246741 0.613283 0.215868
0.264912 0.613208 0.215341
0.286140 0.613230 0.214998
0.311384 0.613336 0.214786
0.342075 0.613465 0.214529
0.380189 0.613625 0.214209
0.428789 0.613829 0.213800
0.492894 0.614098 0.213262
0.573666 0.614437 0.212584
0.637771 0.614707 0.212046
0.686371 0.614911 0.211638
0.724485 0.615071 0.211318
0.755176 0.615200 0.211060
0.780420 0.615306 0.210848
0.801549 0.615394 0.210670
0.819494 0.615470 0.210520
0.249126 0.661741 0.213954
0.267070 0.661816 0.213803
0.288199 0.661905 0.213625
0.313443 0.662011 0.213413
0.344134 0.662140 0.213156
0.382248 0.662300 0.212836
0.430848 0.662504 0.212428
0.494953 0.662773 0.211889
0.575725 0.663112 0.211211
0.639830 0.663381 0.210673
0.688430 0.663585 0.210265
0.726544 0.663745 0.209945
0.757235 0.663874 0.209687
0.782479 0.663980 0.209475
0.803608 0.664069 0.209298
0.821553 0.664144 0.209147
0.250740 0.699913 0.212877
0.268685 0.699988 0.212726
0.289814 0.700077 0.212549
0.315058 0.700183 0.212337
0.345749 0.700312 0.212079
0.383863 0.700472 0.211759
0.432463 0.700676 0.211351
0.496568 0.700945 0.210813
0.577340 0.701284 0.210135
0.641445 0.701553 0.209596
0.690045 0.701757 0.209188
0.728159 0.701917 0.208868
0.758850 0.702046 0.208610
0.784094 0.702152 0.208398
0.805223 0.702241 0.208221
0.823168 0.702316 0.208070
0.252041 0.730651 0.212010
0.269985 0.730726 0.211859
0.291114 0.730815 0.211682
0.316359 0.730921 0.211470
0.347050 0.731050 0.211212
0.385164 0.731210 0.210892
0.433764 0.731414 0.210484
0.497869 0.731683 0.209946
0.578641 0.732022 0.209268
0.642745 0.732291 0.208729
0.691346 0.732495 0.208321
0.729460 0.732655 0.208001
0.760151 0.732784 0.207743
0.785395 0.732890 0.207531
0.806524 0.732979 0.207354
0.824468 0.733054 0.207203
0.253111 0.755934 0.211297
0.271055 0.756009 0.211146
0.292184 0.756098 0.210969
0.317428 0.756204 0.210757
0.348119 0.756333 0.210499
0.386233 0.756493 0.210179
0.434833 0.756697 0.209771
0.498938 0.756966 0.209233
0.579710 0.757305 0.208554
0.643815 0.757574 0.208016
0.692415 0.757778 0.207608
0.730529 0.757938 0.207288
0.761220 0.758067 0.207030
0.786464 0.758173 0.206818
0.807593 0.758262 0.206641
0.825538 0.758337 0.206490
0.254006 0.777095 0.210700
0.271950 0.777170 0.210549
0.293079 0.777259 0.210372
0.318323 0.777365 0.210160
0.349014 0.777494 0.209902
0.387128 0.777654 0.209582
0.435729 0.777858 0.209174
0.499833 0.778127 0.208636
0.580605 0.778466 0.207958
0.644710 0.778735 0.207419
0.693310 0.778940 0.207011
0.731424 0.779100 0.206691
0.762115 0.779228 0.206434
0.787360 0.779334 0.206222
0.808489 0.779423 0.206044
0.826433 0.779498 0.205893
0.254766 0.795067 0.210193
0.272711 0.795142 0.210042
0.293840 0.795231 0.209865
0.319084 0.795337 0.209653
0.349775 0.795466 0.209395
0.387889 0.795626 0.209075
0.436489 0.795830 0.208667
0.500594 0.796099 0.208129
0.581366 0.796438 0.207451
0.645470 0.796707 0.206912
0.694071 0.796911 0.206504
0.732185 0.797071 0.206184
0.762876 0.797200 0.205927
0.788120 0.797306 0.205715
0.809249 0.797395 0.205537
0.827193 0.797470 0.205387
0.213813 0.232988 0.275148
0.231983 0.232912 0.274621
0.253378 0.232824 0.274000
0.278940 0.232718 0.273258
0.310018 0.232589 0.272356
0.348612 0.232429 0.271236
0.397824 0.232225 0.269807
0.462736 0.231956 0.267923
0.544526 0.231617 0.265549
0.609438 0.231347 0.263665
0.658650 0.231143 0.262237
0.697244 0.230983 0.261117
0.728322 0.230854 0.260215
0.753884 0.230749 0.259473
0.775279 0.230660 0.258852
0.793450 0.230584 0.258325
0.215333 0.250453 0.273374
0.233504 0.250377 0.272846
0.254899 0.250289 0.272225
0.280461 0.250183 0.271484
0.311539 0.250054 0.270582
0.350133 0.249894 0.269461
0.399345 0.249690 0.268033
0.464257 0.249421 0.266149
0.546046 0.249082 0.263775
0.610959 0.248812 0.261891
0.660171 0.248608 0.260463
0.698765 0.248448 0.259343
0.729843 0.248319 0.258441
0.755405 0.248213 0.257699
0.776800 0.248125 0.257078
0.794970 0.248049 0.256551
0.217124 0.271017 0.271285
0.235294 0.270942 0.270757
0.256689 0.270853 0.270137
0.282252 0.270747 0.269395
0.313329 0.270618 0.268493
0.351923 0.270458 0.267372
0.401136 0.270254 0.265944
0.466048 0.269985 0.264060
0.547837 0.269646 0.261686
0.612749 0.269377 0.259802
0.661962 0.269173 0.258374
0.700556 0.269013 0.257254
0.731633 0.268884 0.256352
0.757195 0.268778 0.255610
0.778591 0.268689 0.254989
0.796761 0.268614 0.254462
0.219263 0.295587 0.268789
0.237433 0.295512 0.268262
0.258829 0.295423 0.267641
0.284391 0.295317 0.266899
0.315468 0.295188 0.265997
0.354062 0.295028 0.264877
0.403275 0.294824 0.263448
0.468187 0.294555 0.261564
0.549976 0.294216 0.259191
0.614888 0.293947 0.257307
0.664101 0.293743 0.255878
0.702695 0.293583 0.254758
0.733772 0.293454 0.253856
0.759335 0.293348 0.253114
0.780730 0.293259 0.252493
0.798900 0.293184 0.251966
0.221864 0.325458 0.265755
0.240034 0.325383 0.265227
0.261430 0.325294 0.264606
0.286992 0.325188 0.263864
0.318069 0.325059 0.262963
0.356663 0.324899 0.261842
0.405876 0.324695 0.260414
0.470788 0.324426 0.258530
0.552577 0.324087 0.256156
0.617489 0.323818 0.254272
0.666702 0.323613 0.252844
0.705296 0.323453 0.251724
0.736373 0.323325 0.250822
0.761935 0.323219 0.250080
0.783331 0.323130 0.249459
0.801501 0.323055 0.248932
0.225094 0.362553 0.261987
0.243264 0.362478 0.261459
0.264659 0.362389 0.260838
0.290222 0.362283 0.260096
0.321299 0.362155 0.259194
0.359893 0.361995 0.258074
0.409106 0.361791 0.256646
0.474018 0.361521 0.254762
0.555807 0.361182 0.252388
0.620719 0.360913 0.250504
0.669932 0.360709 0.249076
0.708526 0.360549 0.247956
0.739603 0.360420 0.247054
0.765165 0.360314 0.246312
0.786561 0.360226 0.245691
0.804731 0.360150 0.245163
0.229212 0.409855 0.257182
0.247383 0.409780 0.256654
0.268778 0.409691 0.256033
0.294340 0.409585 0.255291
0.325418 0.409456 0.254389
0.364012 0.409296 0.253269
0.413224 0.409092 0.251841
0.478136 0.408823 0.249957
0.559926 0.408484 0.247583
0.624838 0.408215 0.245699
0.674050 0.408011 0.244271
0.712644 0.407851 0.243151
0.743722 0.407722 0.242249
0.769284 0.407616 0.241507
0.790679 0.407527 0.240886
0.808849 0.407452 0.240358
0.234645 0.472247 0.250844
0.252815 0.472172 0.250316
0.274210 0.472083 0.249695
0.299772 0.471977 0.248953
0.330850 0.471848 0.248052
0.369444 0.471688 0.246931
0.418657 0.471484 0.245503
0.483569 0.471215 0.243619
0.565358 0.470876 0.241245
0.630270 0.470607 0.239361
0.679483 0.470403 0.237933
0.718077 0.470243 0.236813
0.749128 0.470132 0.235955
0.774372 0.470238 0.235743
0.795501 0.470326 0.235566
0.813445 0.470402 0.235415
0.241490 0.550861 0.242858
0.259660 0.550786 0.242331
0.281055 0.550697 0.241710
0.306617 0.550591 0.240968
0.337695 0.550462 0.240066
0.376289 0.550302 0.238946
0.425501 0.550098 0.237517
0.490268 0.549926 0.235876
0.571040 0.550265 0.235198
0.635145 0.550534 0.234659
0.683745 0.550738 0.234251
0.721859 0.550898 0.233931
0.752550 0.551027 0.233673
0.777794 0.551133 0.233461
0.798923 0.551222 0.233284
0.816868 0.551297 0.233133
0.246922 0.613253 0.236520
0.265092 0.613177 0.235993
0.286230 0.613260 0.235801
0.311474 0.613366 0.235589
0.342165 0.613495 0.235331
0.380279 0.613655 0.235011
0.428880 0.613859 0.234603
0.492984 0.614128 0.234065
0.573756 0.614468 0.233387
0.637861 0.614737 0.232848
0.686461 0.614941 0.232440
0.724575 0.615101 0.232120
0.755266 0.615230 0.231863
0.780510 0.615336 0.231651
0.801640 0.615424 0.231473
0.819584 0.615500 0.231323
0.249216 0.661771 0.234756
0.267160 0.661846 0.234606
0.288289 0.661935 0.234428
0.313534 0.662041 0.234216
0.344225 0.662170 0.233959
0.382339 0.662330 0.233638
0.430939 0.662534 0.233230
0.495044 0.662803 0.232692
0.575816 0.663142 0.232014
0.639920 0.663411 0.231476
0.688521 0.663615 0.231067
0.726635 0.663775 0.230747
0.757326 0.663904 0.230490
0.782570 0.664010 0.230278
0.803699 0.664099 0.230100
0.821643 0.664174 0.229950
0.250831 0.699943 0.233680
0.268775 0.700019 0.233529
0.289904 0.700107 0.233352
0.315149 0.700213 0.233140
0.345840 0.700342 0.232882
0.383953 0.700502 0.232562
0.432554 0.700706 0.232154
0.496659 0.700975 0.231615
0.577430 0.701314 0.230937
0.641535 0.701584 0.230399
0.690136 0.701788 0.229991
0.728249 0.701948 0.229671
0.758940 0.702076 0.229413
0.784185 0.702182 0.229201
0.805314 0.702271 0.229024
0.823258 0.702347 0.228873
0.252131 0.730681 0.232813
0.270076 0.730756 0.232662
0.291205 0.730845 0.232485
0.316449 0.730951 0.232273
0.347140 0.731080 0.232015
0.385254 0.731240 0.231695
0.433854 0.731444 0.231287
0.497959 0.731713 0.230749
0.578731 0.732052 0.230070
0.642836 0.732321 0.229532
0.691436 0.732526 0.229124
0.729550 0.732686 0.228804
0.760241 0.732814 0.228546
0.785485 0.732920 0.228334
0.806614 0.733009 0.228157
0.824559 0.733084 0.228006
0.253201 0.755964 0.232100
0.271145 0.756039 0.231949
0.292274 0.756128 0.231772
0.317519 0.756234 0.231560
0.348210 0.756363 0.231302
0.386324 0.756523 0.230982
0.434924 0.756727 0.230574
0.499029 0.756996 0.230035
0.579801 0.757335 0.229357
0.643905 0.757604 0.228819
0.692506 0.757808 0.228411
0.730620 0.757968 0.228091
0.761311 0.758097 0.227833
0.786555 0.758203 0.227621
0.807684 0.758292 0.227444
0.825628 0.758367 0.227293
0.254096 0.777125 0.231503
0.272041 0.777201 0.231352
0.293170 0.777289 0.231175
0.318414 0.777395 0.230963
0.349105 0.777524 0.230705
0.387219 0.777684 0.230385
0.435819 0.777888 0.229977
0.499924 0.778157 0.229439
0.580696 0.778496 0.228760
0.644801 0.778766 0.228222
0.693401 0.778970 0.227814
0.731515 0.779130 0.227494
0.762206 0.779259 0.227236
0.787450 0.779365 0.227024
0.808579 0.779453 0.226847
0.826523 0.779529 0.226696
0.254857 0.795097 0.230996
0.272801 0.795172 0.230845
0.293930 0.795261 0.230668
0.319174 0.795367 0.230456
0.349865 0.795496 0.230198
0.387979 0.795656 0.229878
0.436579 0.795860 0.229470
0.500684 0.796129 0.228932
0.581456 0.796468 0.228253
0.645561 0.796737 0.227715
0.694161 0.796941 0.227307
0.732275 0.797102 0.226987
0.762966 0.797230 0.226729
0.788210 0.797336 0.226517
0.809339 0.797425 0.226340
0.827284 0.797500 0.226189
0.214028 0.232952 0.299822
0.232199 0.232876 0.299295
0.253594 0.232788 0.298674
0.279156 0.232682 0.297932
0.310234 0.232553 0.297030
0.348828 0.232393 0.295910
0.398040 0.232189 0.294481
0.462952 0.231920 0.292598
0.544742 0.231581 0.290224
0.609654 0.231311 0.288340
0.658866 0.231107 0.286911
0.697460 0.230947 0.285791
0.728538 0.230819 0.284889
0.754100 0.230713 0.284147
0.775495 0.230624 0.283526
0.793666 0.230548 0.282999
0.215549 0.250417 0.298048
0.233720 0.250341 0.297521
0.255115 0.250253 0.296900
0.280677 0.250147 0.296158
0.311755 0.250018 0.295256
0.350349 0.249858 0.294136
0.399561 0.249654 0.292707
0.464473 0.249385 0.290823
0.546262 0.249046 0.288450
0.611175 0.248776 0.286566
0.660387 0.248572 0.285137
0.698981 0.248412 0.284017
0.730059 0.248283 0.283115
0.755621 0.248177 0.282373
0.777016 0.248089 0.281752
0.795186 0.248013 0.281225
0.217340 0.270981 0.295959
0.235510 0.270906 0.295432
0.256905 0.270817 0.294811
0.282467 0.270711 0.294069
0.313545 0.270582 0.293167
0.352139 0.270422 0.292047
0.401352 0.270218 0.290618
0.466264 0.269949 0.288734
0.548053 0.269610 0.286361
0.612965 0.269341 0.284477
0.662178 0.269137 0.283048
0.700772 0.268977 0.281928
0.731849 0.268848 0.281026
0.757411 0.268742 0.280284
0.778806 0.268653 0.279663
0.796977 0.268578 0.279136
0.219479 0.295551 0.293463
0.237649 0.295476 0.292936
0.259045 0.295387 0.292315
0.284607 0.295281 0.291573
0.315684 0.295152 0.290671
0.354278 0.294992 0.289551
0.403491 0.294788 0.288123
0.468403 0.294519 0.286239
0.550192 0.294180 0.283865
0.615104 0.293911 0.281981
0.664317 0.293707 0.280552
0.702911 0.293547 0.279432
0.733988 0.293418 0.278530
0.759551 0.293312 0.277788
0.780946 0.293223 0.277168
0.799116 0.293148 0.276640
0.222080 0.325422 0.290429
0.240250 0.325347 0.289902
0.261645 0.325258 0.289281
0.287208 0.325152 0.288539
0.318285 0.325023 0.287637
0.356879 0.324863 0.286517
0.406092 0.324659 0.285088
0.471004 0.324390 0.283204
0.552793 0.324051 0.280830
0.617705 0.323782 0.278946
0.666918 0.323578 0.277518
0.705512 0.323417 0.276398
0.736589 0.323289 0.275496
0.762151 0.323183 0.274754
0.783547 0.323094 0.274133
0.801717 0.323019 0.273606
0.225310 0.362517 0.286661
0.243480 0.362442 0.286133
0.264875 0.362353 0.285512
0.290437 0.362247 0.284771
0.321515 0.362119 0.283869
0.360109 0.361959 0.282748
0.409322 0.361755 0.281320
0.474234 0.361485 0.279436
0.556023 0.361146 0.277062
0.620935 0.360877 0.275178
0.670148 0.360673 0.273750
0.708742 0.360513 0.272630
0.739819 0.360384 0.271728
0.765381 0.360278 0.270986
0.786776 0.360190 0.270365
0.804947 0.360114 0.269838
0.229428 0.409819 0.281856
0.247599 0.409744 0.281328
0.268994 0.409655 0.280707
0.294556 0.409549 0.279966
0.325634 0.409420 0.279064
0.364228 0.409260 0.277943
0.413440 0.409056 0.276515
0.478352 0.408787 0.274631
0.560142 0.408448 0.272257
0.625054 0.408179 0.270373
0.674266 0.407975 0.268945
0.712860 0.407815 0.267825
0.743938 0.407686 0.266923
0.769500 0.407580 0.266181
0.790895 0.407491 0.265560
0.809065 0.407416 0.265033
0.234861 0.472211 0.275518
0.253031 0.472136 0.274991
0.274426 0.472047 0.274370
0.299988 0.471941 0.273628
0.331066 0.471812 0.272726
0.369660 0.471652 0.271606
0.418872 0.471448 0.270177
