public/lut/cyberpunk.cube
TITLE "cyberpunk"
LUT_3D_SIZE 6
0.192308 0.236615 0.251385
0.245665 0.233244 0.247543
0.359604 0.226045 0.239339
0.636062 0.208577 0.219434
0.818654 0.197040 0.206287
0.904603 0.191610 0.200099
0.185714 0.280591 0.238461
0.239071 0.277220 0.234619
0.353010 0.270021 0.226415
0.629469 0.252553 0.206510
0.812061 0.241016 0.193364
0.898009 0.235585 0.187175
0.171633 0.374497 0.210863
0.224990 0.371126 0.207021
0.338930 0.363927 0.198818
0.615388 0.346459 0.178912
0.797980 0.334922 0.165766
0.883929 0.329492 0.159577
0.137469 0.602349 0.143901
0.190826 0.598978 0.140059
0.304765 0.591778 0.131855
0.590441 0.581224 0.128081
0.779472 0.574516 0.126203
0.868452 0.571359 0.125319
0.130135 0.764260 0.126327
0.185373 0.762300 0.125778
0.303331 0.758114 0.124606
0.589539 0.747959 0.121763
0.778570 0.741251 0.119885
0.867550 0.738094 0.119001
0.129710 0.842745 0.123353
0.184948 0.840785 0.122804
0.302906 0.836599 0.121632
0.589114 0.826443 0.118789
0.778145 0.819736 0.116911
0.867125 0.816578 0.116027
0.191642 0.235470 0.305397
0.244999 0.232099 0.301555
0.358938 0.224900 0.293351
0.635397 0.207432 0.273446
0.817989 0.195895 0.260300
0.903937 0.190465 0.254111
0.185048 0.279446 0.292473
0.238405 0.276075 0.288631
0.352344 0.268876 0.280428
0.628803 0.251408 0.260522
0.811395 0.239871 0.247376
0.897344 0.234440 0.241187
0.170968 0.373353 0.264875
0.224325 0.369981 0.261034
0.338264 0.362782 0.252830
0.614722 0.345314 0.232925
0.797314 0.333777 0.219778
0.883263 0.328347 0.213590
0.136803 0.601204 0.197913
0.190160 0.597833 0.194071
0.304207 0.590714 0.186055
0.590415 0.580558 0.183211
0.779446 0.573851 0.181333
0.868425 0.570693 0.180449
0.130108 0.763594 0.181458
0.185347 0.761634 0.180909
0.303304 0.757449 0.179737
0.589512 0.747293 0.176893
0.778543 0.740586 0.175015
0.867523 0.737428 0.174131
0.129683 0.842079 0.178484
0.184922 0.840119 0.177935
0.302879 0.835933 0.176763
0.589087 0.825778 0.173919
0.778118 0.819070 0.172041
0.867098 0.815913 0.171157
0.190221 0.233026 0.420736
0.243577 0.229654 0.416894
0.357517 0.222455 0.408690
0.633975 0.204987 0.388785
0.816567 0.193450 0.375638
0.902516 0.188020 0.369450
0.183627 0.277001 0.407812
0.236984 0.273630 0.403970
0.350923 0.266431 0.395767
0.627382 0.248963 0.375861
0.809973 0.237426 0.362715
0.895922 0.231995 0.356526
0.169546 0.370908 0.380214
0.222903 0.367536 0.376372
0.336843 0.360337 0.368169
0.613301 0.342869 0.348264
0.795893 0.331332 0.335117
0.881842 0.325902 0.328929
0.135382 0.598759 0.313252
0.188739 0.595388 0.309410
0.304150 0.589292 0.303782
0.590358 0.579137 0.300938
0.779389 0.572429 0.299060
0.868369 0.569272 0.298176
0.130051 0.762173 0.299185
0.185290 0.760213 0.298636
0.303247 0.756027 0.297464
0.589455 0.745872 0.294620
0.778486 0.739164 0.292742
0.867466 0.736007 0.291858
0.129626 0.840658 0.296211
0.184865 0.838697 0.295662
0.302822 0.834512 0.294490
0.589030 0.824356 0.291646
0.778061 0.817649 0.289768
0.867041 0.814491 0.288884
0.186772 0.227093 0.700590
0.240129 0.223722 0.696748
0.354068 0.216523 0.688545
0.630526 0.199055 0.668639
0.813118 0.187518 0.655493
0.899067 0.182088 0.649304
0.180178 0.271069 0.687666
0.233535 0.267698 0.683825
0.347474 0.260499 0.675621
0.623933 0.243031 0.655716
0.806525 0.231494 0.642569
0.892473 0.226063 0.636381
0.166097 0.364976 0.660068
0.219454 0.361604 0.656227
0.333394 0.354405 0.648023
0.609852 0.336937 0.628118
0.792444 0.325400 0.614971
0.878393 0.319970 0.608783
0.131933 0.592827 0.593106
0.186054 0.590029 0.590602
0.304012 0.585843 0.589430
0.590220 0.575688 0.586587
0.779251 0.568980 0.584709
0.868231 0.565823 0.583825
0.129913 0.758724 0.584833
0.185152 0.756764 0.584284
0.303109 0.752578 0.583112
0.589317 0.742423 0.580269
0.778348 0.735715 0.578391
0.867328 0.732558 0.577507
0.129488 0.837209 0.581859
0.184727 0.835249 0.581310
0.302684 0.831063 0.580138
0.588892 0.820907 0.577295
0.777923 0.814200 0.575417
0.866903 0.811042 0.574533
0.184494 0.223175 0.885425
0.237851 0.219804 0.881583
0.351790 0.212605 0.873379
0.628248 0.195137 0.853474
0.810840 0.183600 0.840328
0.896789 0.178170 0.834139
0.177900 0.267151 0.872501
0.231257 0.263780 0.868659
0.345196 0.256581 0.860456
0.621655 0.239113 0.840550
0.804247 0.227576 0.827404
0.890195 0.222145 0.821215
0.163820 0.361058 0.844903
0.217176 0.357686 0.841062
0.331116 0.350487 0.832858
0.607574 0.333019 0.812953
0.790166 0.321482 0.799806
0.876115 0.316052 0.793618
0.130725 0.589711 0.779813
0.185963 0.587751 0.779264
0.303921 0.583565 0.778092
0.590129 0.573410 0.775248
0.779160 0.566702 0.773370
0.868140 0.563545 0.772486
0.129822 0.756446 0.773495
0.185061 0.754486 0.772946
0.303018 0.750300 0.771774
0.589226 0.740145 0.768930
0.778257 0.733437 0.767052
0.867237 0.730280 0.766168
0.129397 0.834931 0.770521
0.184636 0.832971 0.769972
0.302593 0.828785 0.768800
0.588801 0.818629 0.765956
0.777832 0.811922 0.764078
0.866812 0.808765 0.763194
0.183422 0.221331 0.972429
0.236778 0.217960 0.968588
0.350718 0.210761 0.960384
0.627176 0.193293 0.940479
0.809768 0.181756 0.927332
0.895717 0.176325 0.921144
0.176828 0.265307 0.959505
0.230185 0.261936 0.955664
0.344124 0.254736 0.947460
0.620582 0.237269 0.927555
0.803174 0.225732 0.914408
0.889123 0.220301 0.908220
0.162747 0.359213 0.931908
0.216104 0.355842 0.928066
0.330043 0.348643 0.919862
0.606502 0.331175 0.899957
0.789094 0.319638 0.886810
0.875043 0.314207 0.880622
0.130682 0.588639 0.868619
0.185920 0.586679 0.868070
0.303878 0.582493 0.866898
0.590086 0.572338 0.864054
0.779117 0.565630 0.862176
0.868097 0.562473 0.861292
0.129779 0.755374 0.862301
0.185018 0.753414 0.861752
0.302975 0.749228 0.860580
0.589183 0.739073 0.857736
0.778214 0.732365 0.855858
0.867194 0.729208 0.854974
0.129354 0.833858 0.859327
0.184593 0.831898 0.858778
0.302550 0.827713 0.857606
0.588758 0.817557 0.854762
0.777789 0.810850 0.852884
0.866769 0.807692 0.852000
