public/lut/cyberpunk.cube
TITLE "cyberpunk"
LUT_3D_SIZE 16
0.192308 0.236615 0.251385
0.205178 0.235802 0.250458
0.223035 0.234674 0.249172
0.245665 0.233244 0.247543
0.274294 0.231435 0.245482
0.311076 0.229111 0.242833
0.359604 0.226045 0.239339
0.426139 0.221841 0.234549
0.522527 0.215751 0.227609
0.636062 0.208577 0.219434
0.715998 0.203526 0.213679
0.774304 0.199842 0.209481
0.818654 0.197040 0.206287
0.853487 0.194839 0.203779
0.881542 0.193067 0.201759
0.904603 0.191610 0.200099
0.190717 0.247223 0.248267
0.203588 0.246410 0.247341
0.221445 0.245281 0.246055
0.244074 0.243852 0.244425
0.272703 0.242043 0.242364
0.309485 0.239719 0.239716
0.358013 0.236652 0.236222
0.424548 0.232449 0.231431
0.520936 0.226358 0.224491
0.634472 0.219185 0.216317
0.714408 0.214134 0.210561
0.772713 0.210450 0.206363
0.817064 0.207648 0.203170
0.851896 0.205447 0.200662
0.879951 0.203674 0.198642
0.903013 0.202217 0.196982
0.188510 0.261940 0.243942
0.201381 0.261127 0.243015
0.219238 0.259999 0.241730
0.241867 0.258569 0.240100
0.270496 0.256760 0.238039
0.307279 0.254436 0.235391
0.355807 0.251370 0.231897
0.422342 0.247166 0.227106
0.518729 0.241076 0.220166
0.632265 0.233902 0.211991
0.712201 0.228851 0.206236
0.770506 0.225167 0.202038
0.814857 0.222365 0.198845
0.849689 0.220164 0.196337
0.877744 0.218392 0.194317
0.900806 0.216934 0.192656
0.185714 0.280591 0.238461
0.198584 0.279778 0.237534
0.216441 0.278650 0.236248
0.239071 0.277220 0.234619
0.267700 0.275411 0.232558
0.304482 0.273087 0.229909
0.353010 0.270021 0.226415
0.419545 0.265817 0.221625
0.515933 0.259726 0.214685
0.629469 0.252553 0.206510
0.709404 0.247502 0.200755
0.767710 0.243818 0.196557
0.812061 0.241016 0.193364
0.846893 0.238815 0.190856
0.874948 0.237042 0.188836
0.898009 0.235585 0.187175
0.182176 0.304187 0.231526
0.195046 0.303373 0.230600
0.212903 0.302245 0.229314
0.235533 0.300815 0.227685
0.264162 0.299006 0.225623
0.300944 0.296682 0.222975
0.349472 0.293616 0.219481
0.416007 0.289412 0.214690
0.512395 0.283322 0.207750
0.625931 0.276148 0.199576
0.705866 0.271098 0.193820
0.764172 0.267414 0.189622
0.808523 0.264611 0.186429
0.843355 0.262411 0.183921
0.871410 0.260638 0.181901
0.894471 0.259181 0.180241
0.177630 0.334502 0.222617
0.190501 0.333689 0.221691
0.208358 0.332560 0.220405
0.230987 0.331130 0.218775
0.259616 0.329322 0.216714
0.296399 0.326998 0.214066
0.344927 0.323931 0.210572
0.411462 0.319727 0.205781
0.507849 0.313637 0.198841
0.621385 0.306464 0.190667
0.701321 0.301413 0.184911
0.759626 0.297729 0.180713
0.803977 0.294927 0.177520
0.838809 0.292726 0.175012
0.866864 0.290953 0.172992
0.889926 0.289496 0.171332
0.171633 0.374497 0.210863
0.184504 0.373684 0.209936
0.202361 0.372556 0.208651
0.224990 0.371126 0.207021
0.253619 0.369317 0.204960
0.290402 0.366993 0.202312
0.338930 0.363927 0.198818
0.405465 0.359723 0.194027
0.501852 0.353633 0.187087
0.615388 0.346459 0.178912
0.695324 0.341409 0.173157
0.753629 0.337725 0.168959
0.797980 0.334922 0.165766
0.832812 0.332721 0.163258
0.860867 0.330949 0.161238
0.883929 0.329492 0.159577
0.163411 0.429334 0.194747
0.176282 0.428521 0.193821
0.194138 0.427393 0.192535
0.216768 0.425963 0.190906
0.245397 0.424154 0.188844
0.282179 0.421830 0.186196
0.330707 0.418764 0.182702
0.397242 0.414560 0.177911
0.493630 0.408470 0.170971
0.607166 0.401296 0.162797
0.687102 0.396245 0.157041
0.745407 0.392561 0.152843
0.789758 0.389759 0.149650
0.824590 0.387558 0.147142
0.852645 0.385786 0.145122
0.875706 0.384328 0.143462
0.151500 0.508775 0.171401
0.164370 0.507962 0.170474
0.182227 0.506834 0.169188
0.204856 0.505404 0.167559
0.233486 0.503595 0.165498
0.270268 0.501271 0.162849
0.318796 0.498205 0.159355
0.385331 0.494001 0.154565
0.481719 0.487911 0.147625
0.595254 0.480737 0.139450
0.675190 0.475686 0.133695
0.734119 0.472470 0.130587
0.780034 0.470840 0.130131
0.816094 0.469561 0.129773
0.845139 0.468530 0.129484
0.869013 0.467683 0.129247
0.137469 0.602349 0.143901
0.150339 0.601536 0.142974
0.168196 0.600407 0.141688
0.190826 0.598978 0.140059
0.219455 0.597169 0.137998
0.256237 0.594845 0.135349
0.304765 0.591778 0.131855
0.373115 0.588935 0.130240
0.472902 0.585394 0.129249
0.590441 0.581224 0.128081
0.673196 0.578287 0.127259
0.733558 0.576145 0.126659
0.779472 0.574516 0.126203
0.815533 0.573237 0.125844
0.844577 0.572206 0.125556
0.868452 0.571359 0.125319
0.130642 0.670519 0.129879
0.143966 0.670046 0.129747
0.162453 0.669390 0.129563
0.185881 0.668559 0.129330
0.215519 0.667507 0.129036
0.253599 0.666156 0.128658
0.303838 0.664373 0.128158
0.372719 0.661929 0.127474
0.472507 0.658388 0.126483
0.590046 0.654218 0.125315
0.672801 0.651281 0.124493
0.733162 0.649139 0.123893
0.779077 0.647510 0.123437
0.815138 0.646231 0.123078
0.844182 0.645200 0.122790
0.868057 0.644353 0.122553
0.130354 0.723761 0.127862
0.143678 0.723288 0.127729
0.162165 0.722632 0.127546
0.185592 0.721801 0.127313
0.215231 0.720749 0.127018
0.253311 0.719398 0.126640
0.303550 0.717615 0.126141
0.372431 0.715171 0.125457
0.472218 0.711630 0.124465
0.589758 0.707460 0.123297
0.672513 0.704523 0.122475
0.732874 0.702381 0.121875
0.778789 0.700752 0.121419
0.814850 0.699472 0.121061
0.843894 0.698442 0.120772
0.867769 0.697595 0.120535
0.130135 0.764260 0.126327
0.143459 0.763787 0.126195
0.161946 0.763131 0.126011
0.185373 0.762300 0.125778
0.215012 0.761248 0.125484
0.253091 0.759897 0.125105
0.303331 0.758114 0.124606
0.372212 0.755670 0.123922
0.471999 0.752129 0.122931
0.589539 0.747959 0.121763
0.672293 0.745022 0.120941
0.732655 0.742880 0.120341
0.778570 0.741251 0.119885
0.814630 0.739972 0.119526
0.843675 0.738941 0.119238
0.867550 0.738094 0.119001
0.129962 0.796067 0.125122
0.143287 0.795595 0.124989
0.161773 0.794939 0.124806
0.185201 0.794107 0.124573
0.214840 0.793056 0.124279
0.252919 0.791704 0.123900
0.303158 0.789922 0.123401
0.372040 0.787478 0.122717
0.471827 0.783937 0.121725
0.589366 0.779766 0.120557
0.672121 0.776830 0.119735
0.732483 0.774688 0.119136
0.778398 0.773059 0.118679
0.814458 0.771779 0.118321
0.843503 0.770748 0.118033
0.867377 0.769901 0.117795
0.129824 0.821686 0.124151
0.143148 0.821213 0.124019
0.161635 0.820557 0.123835
0.185062 0.819726 0.123602
0.214701 0.818674 0.123308
0.252781 0.817323 0.122929
0.303020 0.815540 0.122430
0.371901 0.813096 0.121746
0.471688 0.809555 0.120755
0.589228 0.805385 0.119587
0.671983 0.802448 0.118765
0.732344 0.800306 0.118165
0.778259 0.798677 0.117709
0.814320 0.797397 0.117350
0.843364 0.796367 0.117062
0.867239 0.795520 0.116825
0.129710 0.842745 0.123353
0.143034 0.842272 0.123221
0.161521 0.841616 0.123037
0.184948 0.840785 0.122804
0.214587 0.839733 0.122510
0.252667 0.838382 0.122131
0.302906 0.836599 0.121632
0.371787 0.834155 0.120948
0.471574 0.830614 0.119957
0.589114 0.826443 0.118789
0.671869 0.823507 0.117967
0.732230 0.821365 0.117367
0.778145 0.819736 0.116911
0.814206 0.818456 0.116552
0.843250 0.817426 0.116264
0.867125 0.816578 0.116027
0.192147 0.236339 0.264413
0.205018 0.235526 0.263486
0.222874 0.234398 0.262201
0.245504 0.232968 0.260571
0.274133 0.231159 0.258510
0.310915 0.228835 0.255862
0.359443 0.225769 0.252368
0.425978 0.221565 0.247577
0.522366 0.215475 0.240637
0.635902 0.208301 0.232463
0.715838 0.203250 0.226707
0.774143 0.199566 0.222509
0.818494 0.196764 0.219316
0.853326 0.194563 0.216808
0.881381 0.192791 0.214788
0.904443 0.191333 0.213128
0.190557 0.246947 0.261296
0.203427 0.246134 0.260369
0.221284 0.245005 0.259083
0.243913 0.243575 0.257454
0.272543 0.241767 0.255393
0.309325 0.239443 0.252744
0.357853 0.236376 0.249250
0.424388 0.232172 0.244460
0.520776 0.226082 0.237520
0.634311 0.218909 0.229345
0.714247 0.213858 0.223590
0.772553 0.210174 0.219392
0.816903 0.207372 0.216198
0.851736 0.205171 0.213690
0.879791 0.203398 0.211671
0.902852 0.201941 0.210010
0.188350 0.261664 0.256971
0.201220 0.260851 0.256044
0.219077 0.259723 0.254758
0.241707 0.258293 0.253129
0.270336 0.256484 0.251068
0.307118 0.254160 0.248419
0.355646 0.251094 0.244925
0.422181 0.246890 0.240135
0.518569 0.240799 0.233195
0.632105 0.233626 0.225020
0.712040 0.228575 0.219265
0.770346 0.224891 0.215067
0.814697 0.222089 0.211873
0.849529 0.219888 0.209365
0.877584 0.218115 0.207345
0.900645 0.216658 0.205685
0.185553 0.280315 0.251489
0.198424 0.279502 0.250563
0.216281 0.278373 0.249277
0.238910 0.276944 0.247648
0.267539 0.275135 0.245586
0.304322 0.272811 0.242938
0.352850 0.269744 0.239444
0.419385 0.265540 0.234653
0.515772 0.259450 0.227713
0.629308 0.252277 0.219539
0.709244 0.247226 0.213783
0.767549 0.243542 0.209585
0.811900 0.240740 0.206392
0.846732 0.238539 0.203884
0.874787 0.236766 0.201864
0.897849 0.235309 0.200204
0.182015 0.303910 0.244555
0.194886 0.303097 0.243628
0.212743 0.301969 0.242343
0.235372 0.300539 0.240713
0.264001 0.298730 0.238652
0.300784 0.296406 0.236004
0.349312 0.293340 0.232510
0.415847 0.289136 0.227719
0.512234 0.283046 0.220779
0.625770 0.275872 0.212604
0.705706 0.270821 0.206849
0.764011 0.267137 0.202651
0.808362 0.264335 0.199458
0.843194 0.262134 0.196950
0.871249 0.260362 0.194930
0.894311 0.258905 0.193269
0.177470 0.334226 0.235646
0.190340 0.333412 0.234719
0.208197 0.332284 0.233433
0.230827 0.330854 0.231804
0.259456 0.329045 0.229743
0.296238 0.326721 0.227094
0.344766 0.323655 0.223600
0.411301 0.319451 0.218810
0.507689 0.313361 0.211870
0.621225 0.306187 0.203695
0.701160 0.301137 0.197940
0.759466 0.297453 0.193742
0.803817 0.294650 0.190548
0.838649 0.292450 0.188041
0.866704 0.290677 0.186021
0.889765 0.289220 0.184360
0.171473 0.374221 0.223892
0.184343 0.373408 0.222965
0.202200 0.372280 0.221679
0.224830 0.370850 0.220050
0.253459 0.369041 0.217989
0.290241 0.366717 0.215340
0.338769 0.363651 0.211846
0.405304 0.359447 0.207056
0.501692 0.353357 0.200116
0.615228 0.346183 0.191941
0.695163 0.341132 0.186186
0.753469 0.337448 0.181988
0.797820 0.334646 0.178794
0.832652 0.332445 0.176286
0.860707 0.330673 0.174266
0.883768 0.329216 0.172606
0.163251 0.429058 0.207776
0.176121 0.428245 0.206849
0.193978 0.427117 0.205563
0.216607 0.425687 0.203934
0.245237 0.423878 0.201873
0.282019 0.421554 0.199224
0.330547 0.418488 0.195730
0.397082 0.414284 0.190940
0.493470 0.408193 0.184000
0.607005 0.401020 0.175825
0.686941 0.395969 0.170070
0.745246 0.392285 0.165872
0.789597 0.389483 0.162679
0.824430 0.387282 0.160171
0.852484 0.385509 0.158151
0.875546 0.384052 0.156490
0.151339 0.508499 0.184429
0.164210 0.507686 0.183503
0.182066 0.506557 0.182217
0.204696 0.505128 0.180588
0.233325 0.503319 0.178526
0.270107 0.500995 0.175878
0.318635 0.497928 0.172384
0.385170 0.493725 0.167593
0.481558 0.487634 0.160653
0.595094 0.480461 0.152479
0.675030 0.475410 0.146723
0.734112 0.472309 0.143886
0.780027 0.470680 0.143430
0.816088 0.469400 0.143071
0.845132 0.468370 0.142783
0.869007 0.467523 0.142546
0.137308 0.602073 0.156929
0.150179 0.601259 0.156003
0.168036 0.600131 0.154717
0.190665 0.598701 0.153088
0.219294 0.596892 0.151026
0.256077 0.594568 0.148378
0.304605 0.591502 0.144884
0.373108 0.588775 0.143538
0.472895 0.585234 0.142547
0.590435 0.581063 0.141379
0.673190 0.578127 0.140557
0.733551 0.575985 0.139957
0.779466 0.574356 0.139501
0.815527 0.573076 0.139143
0.844571 0.572045 0.138854
0.868446 0.571198 0.138617
0.130636 0.670358 0.143178
0.143960 0.669886 0.143045
0.162447 0.669230 0.142861
0.185874 0.668398 0.142629
0.215513 0.667347 0.142334
0.253592 0.665995 0.141956
0.303832 0.664213 0.141457
0.372713 0.661769 0.140772
0.472500 0.658228 0.139781
0.590040 0.654057 0.138613
0.672794 0.651121 0.137791
0.733156 0.648979 0.137191
0.779071 0.647350 0.136735
0.815132 0.646070 0.136377
0.844176 0.645039 0.136088
0.868051 0.644192 0.135851
0.130347 0.723600 0.141160
0.143672 0.723127 0.141028
0.162158 0.722472 0.140844
0.185586 0.721640 0.140611
0.215225 0.720589 0.140317
0.253304 0.719237 0.139938
0.303543 0.717455 0.139439
0.372425 0.715010 0.138755
0.472212 0.711470 0.137763
0.589751 0.707299 0.136596
0.672506 0.704363 0.135773
0.732868 0.702221 0.135174
0.778783 0.700591 0.134718
0.814843 0.699312 0.134359
0.843888 0.698281 0.134071
0.867762 0.697434 0.133834
0.130128 0.764099 0.139625
0.143453 0.763627 0.139493
0.161939 0.762971 0.139309
0.185367 0.762139 0.139077
0.215005 0.761088 0.138782
0.253085 0.759736 0.138404
0.303324 0.757954 0.137905
0.372206 0.755510 0.137220
0.471993 0.751969 0.136229
0.589532 0.747798 0.135061
0.672287 0.744862 0.134239
0.732649 0.742720 0.133639
0.778563 0.741091 0.133183
0.814624 0.739811 0.132825
0.843668 0.738780 0.132536
0.867543 0.737933 0.132299
0.129956 0.795907 0.138420
0.143280 0.795434 0.138288
0.161767 0.794778 0.138104
0.185195 0.793947 0.137871
0.214833 0.792895 0.137577
0.252913 0.791544 0.137199
0.303152 0.789761 0.136699
0.372033 0.787317 0.136015
0.471820 0.783776 0.135024
0.589360 0.779605 0.133856
0.672115 0.776669 0.133034
0.732476 0.774527 0.132434
0.778391 0.772898 0.131978
0.814452 0.771618 0.131619
0.843496 0.770588 0.131331
0.867371 0.769741 0.131094
0.129817 0.821525 0.137449
0.143142 0.821053 0.137317
0.161628 0.820397 0.137133
0.185056 0.819565 0.136901
0.214695 0.818514 0.136606
0.252774 0.817162 0.136228
0.303013 0.815380 0.135729
0.371895 0.812936 0.135044
0.471682 0.809395 0.134053
0.589221 0.805224 0.132885
0.671976 0.802288 0.132063
0.732338 0.800146 0.131463
0.778252 0.798516 0.131007
0.814313 0.797237 0.130649
0.843357 0.796206 0.130360
0.867232 0.795359 0.130123
0.129703 0.842584 0.136651
0.143028 0.842111 0.136519
0.161514 0.841455 0.136335
0.184942 0.840624 0.136103
0.214581 0.839572 0.135808
0.252660 0.838221 0.135430
0.302899 0.836438 0.134931
0.371781 0.833994 0.134246
0.471568 0.830453 0.133255
0.589107 0.826283 0.132087
0.671862 0.823346 0.131265
0.732224 0.821204 0.130665
0.778138 0.819575 0.130209
0.814199 0.818296 0.129851
0.843243 0.817265 0.129562
0.867118 0.816418 0.129325
0.191924 0.235956 0.282489
0.204795 0.235143 0.281563
0.222652 0.234015 0.280277
0.245281 0.232585 0.278648
0.273910 0.230776 0.276586
0.310693 0.228452 0.273938
0.359221 0.225386 0.270444
0.425756 0.221182 0.265653
0.522143 0.215091 0.258713
0.635679 0.207918 0.250539
0.715615 0.202867 0.244783
0.773920 0.199183 0.240585
0.818271 0.196381 0.237392
0.853103 0.194180 0.234884
0.881158 0.192407 0.232864
0.904220 0.190950 0.231204
0.190334 0.246564 0.279372
0.203204 0.245750 0.278445
0.221061 0.244622 0.277160
0.243691 0.243192 0.275530
0.272320 0.241383 0.273469
0.309102 0.239059 0.270821
0.357630 0.235993 0.267327
0.424165 0.231789 0.262536
0.520553 0.225699 0.255596
0.634089 0.218525 0.247421
0.714024 0.213475 0.241666
0.772330 0.209791 0.237468
0.816680 0.206988 0.234275
0.851513 0.204788 0.231767
0.879568 0.203015 0.229747
0.902629 0.201558 0.228086
0.188127 0.261281 0.275047
0.200998 0.260468 0.274120
0.218854 0.259339 0.272834
0.241484 0.257910 0.271205
0.270113 0.256101 0.269144
0.306895 0.253777 0.266495
0.355423 0.250710 0.263001
0.421958 0.246506 0.258211
0.518346 0.240416 0.251271
0.631882 0.233243 0.243096
0.711818 0.228192 0.237341
0.770123 0.224508 0.233143
0.814474 0.221706 0.229949
0.849306 0.219505 0.227442
0.877361 0.217732 0.225422
0.900422 0.216275 0.223761
0.185331 0.279932 0.269566
0.198201 0.279118 0.268639
0.216058 0.277990 0.267353
0.238687 0.276560 0.265724
0.267317 0.274751 0.263663
0.304099 0.272427 0.261014
0.352627 0.269361 0.257520
0.419162 0.265157 0.252730
0.515550 0.259067 0.245790
0.629085 0.251893 0.237615
0.709021 0.246843 0.231860
0.767326 0.243159 0.227662
0.811677 0.240356 0.224468
0.846510 0.238156 0.221960
0.874564 0.236383 0.219940
0.897626 0.234926 0.218280
0.181793 0.303527 0.262631
0.194663 0.302714 0.261705
0.212520 0.301586 0.260419
0.235149 0.300156 0.258789
0.263779 0.298347 0.256728
0.300561 0.296023 0.254080
0.349089 0.292957 0.250586
0.415624 0.288753 0.245795
0.512012 0.282663 0.238855
0.625547 0.275489 0.230681
0.705483 0.270438 0.224925
0.763789 0.266754 0.220727
0.808139 0.263952 0.217534
0.842972 0.261751 0.215026
0.871027 0.259979 0.213006
0.894088 0.258521 0.211346
0.177247 0.333842 0.253722
0.190118 0.333029 0.252795
0.207974 0.331901 0.251510
0.230604 0.330471 0.249880
0.259233 0.328662 0.247819
0.296015 0.326338 0.245171
0.344543 0.323272 0.241677
0.411078 0.319068 0.236886
0.507466 0.312978 0.229946
0.621002 0.305804 0.221771
0.700938 0.300754 0.216016
0.759243 0.297070 0.211818
0.803594 0.294267 0.208625
0.838426 0.292066 0.206117
0.866481 0.290294 0.204097
0.889542 0.288837 0.202436
0.171250 0.373838 0.241968
0.184121 0.373025 0.241041
0.201977 0.371897 0.239755
0.224607 0.370467 0.238126
0.253236 0.368658 0.236065
0.290018 0.366334 0.233416
0.338546 0.363268 0.229922
0.405081 0.359064 0.225132
0.501469 0.352974 0.218192
0.615005 0.345800 0.210017
0.694941 0.340749 0.204262
0.753246 0.337065 0.200064
0.797597 0.334263 0.196871
0.832429 0.332062 0.194363
0.860484 0.330289 0.192343
0.883545 0.328832 0.190682
0.163028 0.428675 0.225852
0.175898 0.427862 0.224925
0.193755 0.426733 0.223640
0.216385 0.425304 0.222010
0.245014 0.423495 0.219949
0.281796 0.421171 0.217301
0.330324 0.418104 0.213807
0.396859 0.413900 0.209016
0.493247 0.407810 0.202076
0.606782 0.400637 0.193902
0.686718 0.395586 0.188146
0.745024 0.391902 0.183948
0.789374 0.389100 0.180755
0.824207 0.386899 0.178247
0.852262 0.385126 0.176227
0.875323 0.383669 0.174566
0.151116 0.508116 0.202506
0.163987 0.507303 0.201579
0.181844 0.506174 0.200293
0.204473 0.504744 0.198664
0.233102 0.502936 0.196603
0.269885 0.500612 0.193954
0.318412 0.497545 0.190460
0.384947 0.493341 0.185670
0.481335 0.487251 0.178730
0.594871 0.480078 0.170555
0.674807 0.475027 0.164800
0.734103 0.472086 0.162336
0.780018 0.470457 0.161880
0.816079 0.469178 0.161522
0.845123 0.468147 0.161233
0.868998 0.467300 0.160996
0.137086 0.601690 0.175006
0.149956 0.600876 0.174079
0.167813 0.599748 0.172793
0.190443 0.598318 0.171164
0.219072 0.596509 0.169103
0.255854 0.594185 0.166454
0.304382 0.591119 0.162960
0.373099 0.588552 0.161989
0.472886 0.585011 0.160997
0.590426 0.580840 0.159830
0.673181 0.577904 0.159007
0.733542 0.575762 0.158408
0.779457 0.574133 0.157951
0.815518 0.572853 0.157593
0.844562 0.571823 0.157305
0.868437 0.570976 0.157067
0.130627 0.670136 0.161628
0.143951 0.669663 0.161496
0.162438 0.669007 0.161312
0.185865 0.668176 0.161079
0.215504 0.667124 0.160785
0.253584 0.665773 0.160406
0.303823 0.663990 0.159907
0.372704 0.661546 0.159223
0.472491 0.658005 0.158231
0.590031 0.653834 0.157064
0.672786 0.650898 0.156241
0.733147 0.648756 0.155642
0.779062 0.647127 0.155186
0.815123 0.645847 0.154827
0.844167 0.644817 0.154539
0.868042 0.643969 0.154301
0.130339 0.723377 0.159611
0.143663 0.722905 0.159478
0.162150 0.722249 0.159294
0.185577 0.721417 0.159062
0.215216 0.720366 0.158767
0.253295 0.719015 0.158389
0.303535 0.717232 0.157890
0.372416 0.714788 0.157205
0.472203 0.711247 0.156214
0.589742 0.707076 0.155046
0.672497 0.704140 0.154224
0.732859 0.701998 0.153624
0.778774 0.700369 0.153168
0.814834 0.699089 0.152810
0.843879 0.698059 0.152521
0.867753 0.697211 0.152284
0.130119 0.763877 0.158076
0.143444 0.763404 0.157944
0.161930 0.762748 0.157760
0.185358 0.761917 0.157527
0.214997 0.760865 0.157233
0.253076 0.759514 0.156854
0.303315 0.757731 0.156355
0.372197 0.755287 0.155671
0.471984 0.751746 0.154679
0.589523 0.747575 0.153512
0.672278 0.744639 0.152689
0.732640 0.742497 0.152090
0.778554 0.740868 0.151633
0.814615 0.739588 0.151275
0.843659 0.738558 0.150987
0.867534 0.737711 0.150749
0.129947 0.795684 0.156871
0.143271 0.795211 0.156738
0.161758 0.794555 0.156555
0.185186 0.793724 0.156322
0.214824 0.792672 0.156027
0.252904 0.791321 0.155649
0.303143 0.789538 0.155150
0.372024 0.787094 0.154465
0.471812 0.783553 0.153474
0.589351 0.779383 0.152306
0.672106 0.776446 0.151484
0.732467 0.774304 0.150884
0.778382 0.772675 0.150428
0.814443 0.771396 0.150070
0.843487 0.770365 0.149781
0.867362 0.769518 0.149544
0.129808 0.821303 0.155900
0.143133 0.820830 0.155767
0.161619 0.820174 0.155584
0.185047 0.819342 0.155351
0.214686 0.818291 0.155057
0.252765 0.816940 0.154678
0.303004 0.815157 0.154179
0.371886 0.812713 0.153495
0.471673 0.809172 0.152503
0.589212 0.805001 0.151335
0.671967 0.802065 0.150513
0.732329 0.799923 0.149914
0.778244 0.798294 0.149457
0.814304 0.797014 0.149099
0.843349 0.795984 0.148811
0.867223 0.795136 0.148573
0.129694 0.842361 0.155102
0.143019 0.841888 0.154970
0.161505 0.841233 0.154786
0.184933 0.840401 0.154553
0.214572 0.839350 0.154259
0.252651 0.837998 0.153880
0.302890 0.836216 0.153381
0.371772 0.833771 0.152697
0.471559 0.830231 0.151705
0.589098 0.826060 0.150538
0.671853 0.823124 0.149715
0.732215 0.820982 0.149116
0.778130 0.819352 0.148659
0.814190 0.818073 0.148301
0.843235 0.817042 0.148013
0.867109 0.816195 0.147775
0.191642 0.235470 0.305397
0.204513 0.234657 0.304470
0.222369 0.233529 0.303184
0.244999 0.232099 0.301555
0.273628 0.230290 0.299494
0.310410 0.227966 0.296845
0.358938 0.224900 0.293351
0.425473 0.220696 0.288561
0.521861 0.214606 0.281621
0.635397 0.207432 0.273446
0.715333 0.202382 0.267691
0.773638 0.198698 0.263493
0.817989 0.195895 0.260300
0.852821 0.193694 0.257792
0.880876 0.191922 0.255772
0.903937 0.190465 0.254111
0.190052 0.246078 0.302279
0.202922 0.245265 0.301353
0.220779 0.244137 0.300067
0.243408 0.242707 0.298438
0.272038 0.240898 0.296376
0.308820 0.238574 0.293728
0.357348 0.235508 0.290234
0.423883 0.231304 0.285443
0.520271 0.225213 0.278503
0.633806 0.218040 0.270329
0.713742 0.212989 0.264573
0.772047 0.209305 0.260375
0.816398 0.206503 0.257182
0.851231 0.204302 0.254674
0.879285 0.202529 0.252654
0.902347 0.201072 0.250994
0.187845 0.260795 0.297954
0.200715 0.259982 0.297028
0.218572 0.258854 0.295742
0.241202 0.257424 0.294113
0.269831 0.255615 0.292051
0.306613 0.253291 0.289403
0.355141 0.250225 0.285909
0.421676 0.246021 0.281118
0.518064 0.239931 0.274178
0.631599 0.232757 0.266004
0.711535 0.227706 0.260248
0.769841 0.224022 0.256050
0.814191 0.221220 0.252857
0.849024 0.219019 0.250349
0.877079 0.217247 0.248329
0.900140 0.215790 0.246669
0.185048 0.279446 0.292473
0.197919 0.278633 0.291546
0.215776 0.277505 0.290261
0.238405 0.276075 0.288631
0.267034 0.274266 0.286570
0.303817 0.271942 0.283922
0.352344 0.268876 0.280428
0.418879 0.264672 0.275637
0.515267 0.258581 0.268697
0.628803 0.251408 0.260522
0.708739 0.246357 0.254767
0.767044 0.242673 0.250569
0.811395 0.239871 0.247376
0.846227 0.237670 0.244868
0.874282 0.235897 0.242848
0.897344 0.234440 0.241187
0.181510 0.303042 0.285539
0.194381 0.302228 0.284612
0.212238 0.301100 0.283326
0.234867 0.299670 0.281697
0.263496 0.297861 0.279636
0.300279 0.295537 0.276987
0.348807 0.292471 0.273493
0.415341 0.288267 0.268703
0.511729 0.282177 0.261763
0.625265 0.275003 0.253588
0.705201 0.269953 0.247833
0.763506 0.266269 0.243635
0.807857 0.263466 0.240441
0.842689 0.261266 0.237933
0.870744 0.259493 0.235913
0.893806 0.258036 0.234253
0.176965 0.333357 0.276629
0.189835 0.332544 0.275703
0.207692 0.331415 0.274417
0.230322 0.329986 0.272788
0.258951 0.328177 0.270726
0.295733 0.325853 0.268078
0.344261 0.322786 0.264584
0.410796 0.318582 0.259793
0.507184 0.312492 0.252854
0.620719 0.305319 0.244679
0.700655 0.300268 0.238923
0.758961 0.296584 0.234725
0.803311 0.293782 0.231532
0.838144 0.291581 0.229024
0.866199 0.289808 0.227004
0.889260 0.288351 0.225344
0.170968 0.373353 0.264875
0.183838 0.372539 0.263949
0.201695 0.371411 0.262663
0.224325 0.369981 0.261034
0.252954 0.368172 0.258972
0.289736 0.365848 0.256324
0.338264 0.362782 0.252830
0.404799 0.358578 0.248039
0.501187 0.352488 0.241099
0.614722 0.345314 0.232925
0.694658 0.340264 0.227169
0.752964 0.336580 0.222971
0.797314 0.333777 0.219778
0.832147 0.331577 0.217270
0.860202 0.329804 0.215250
0.883263 0.328347 0.213590
0.162745 0.428189 0.248760
0.175616 0.427376 0.247833
0.193473 0.426248 0.246547
0.216102 0.424818 0.244918
0.244731 0.423009 0.242857
0.281514 0.420685 0.240208
0.330042 0.417619 0.236714
